!!!!SEGMENT: pl-stab--77a--003_wygrzywalski-jozef--msza-credo.krn
!!!cenid: 18xx:3413
!!!COM: Wygrzywalski, Józef
!!!COM-rismID:
!!!CDT:
!!!CNT:
!!!OPR: Msza
!!!OTL: Credo
!!!OMV: 003
!!!PDT:
!!!AGN:
!!!SMS-siglum: PL-STAb
!!!SMS-shelfmark: 77a
!!!SMS-shelfwork: M
!!!SMS-variant:
!!!SMS-altvar:
!!!NIFC-rismSourceID: 1001167521
!!!NIFC-islandoraID: pl-stab:4717
!!!URL-pdf-islandora: https://repozytorium.nifc.pl/islandora/object/pl-stab%3A4717/datastream/PDF/view
!!!URL-scan: https://polish.musicsources.pl/pl/lokalizacje/galeria/rekopisy/4558 @EN{Scan on Polish Music Herritage in Open Access Website} @PL{Skany w portalu Dziedzictwo Muzyki Polskiej w otwartym dostępie}
!!!ONB-nifc: UWAGA: części Mszy: 1. Kyrie, 2. Gloria, 3. Credo, 4. Sanctus, 5. Benedictus, 6. Agnus Dei. Na f. 1r głosu cl 2 zapisana partytura org dla części Gloria, pochodzącej z innej mszy.
!!!AIN: 1 alto 1 bass 2 clars 2 cor 1 organ 1 soprn 1 tenor 2 violn
!!!key: F
**kern	**fba	**dynam	**kern	**dynam	**kern	**kern	**text	**text	**kern	**kern	**text	**dynam	**kern	**text	**kern	**dynam	**kern	**dynam	**kern	**dynam	**kern	**dynam
*part11	*part11	*part11	*part10	*part10	*part9	*part8	*part8	*part8	*part7	*part6	*part6	*part6	*part5	*part5	*part4	*part4	*part3	*part3	*part2	*part2	*part1	*part1
*staff11	*	*	*staff10	*	*staff9	*staff8	*staff8	*staff8	*staff7	*staff6	*staff6	*	*staff5	*staff5	*staff4	*	*staff3	*	*staff2	*	*staff1	*
*	*	*	*group4	*	*group4	*group3	*	*	*group3	*group3	*	*	*group3	*	*group2	*	*group2	*	*group1	*	*group1	*
*I"Organo	*	*	*I"Violino II	*	*I"Violino primo	*I"Baſso	*	*	*I"Tenor	*I"Alto	*	*	*I"Canto	*	*I"Corno 2do in F	*	*I"Corno 1mo in F	*	*I"Clarinetto 2	*	*I"Clarinetto 1mo in C	*
*I'org	*	*	*I'vl 2	*	*I'vl 1	*I'B	*	*	*I'T	*I'A	*	*	*I'S	*	*I'cor in F 2	*	*I'cor in F 1	*	*I'cl 2	*	*I'cl in C 1	*
*Iorgan	*	*	*Ivioln	*	*Ivioln	*Ibass	*	*	*Itenor	*Ialto	*	*	*Isoprn	*	*Icor	*	*Icor	*	*Iclars	*	*Iclars	*
*ICklav	*	*	*ICstr	*	*ICstr	*ICvox	*	*	*ICvox	*ICvox	*	*	*ICvox	*	*ICbras	*	*ICbras	*	*ICww	*	*ICww	*
*IGcont	*	*	*IGacmp	*	*IGacmp	*IGcoro	*	*	*IGcoro	*IGcoro	*	*	*IGcoro	*	*IGacmp	*	*IGacmp	*	*IGacmp	*	*IGacmp	*
*clefF4	*	*	*clefG2	*	*clefG2	*clefF4	*	*	*	*clefC3	*	*	*clefC1	*	*clefG2	*	*clefG2	*	*clefG2	*	*clefG2	*
*	*	*	*	*	*	*	*	*	*	*	*	*	*	*	*ITrd4c7	*	*ITrd4c7	*	*	*	*	*
*k[b-]	*	*	*k[b-]	*	*k[b-]	*k[b-]	*	*	*	*k[b-]	*	*	*k[b-]	*	*k[b-]	*	*k[b-]	*	*k[b-]	*	*k[b-]	*
*F:	*	*	*F:	*	*F:	*F:	*	*	*	*F:	*	*	*F:	*	*F:	*	*F:	*	*F:	*	*F:	*
*M3/4	*	*	*M3/4	*	*M3/4	*M3/4	*	*	*	*M3/4	*	*	*M3/4	*	*M3/4	*	*M3/4	*	*M3/4	*	*M3/4	*
*	*	*	*	*	*	*	*	*	*	*	*	*	*	*	*	*	*all\right	*	*all\right	*	*all\right	*
=1	=1	=1	=1	=1	=1	=1	=1	=1	=1	=1	=1	=1	=1	=1	=1	=1	=1	=1	=1	=1	=1	=1
!LO:TX:a:B:t=Allo modto	!	!	!LO:TX:a:B:t=Allo modto	!	!LO:TX:t=P:problem=w źródle brak partii vl 1	!LO:TX:a:B:t=Moderato	!	!	!LO:TX:t=P:problem=zgodnie z RISM "Partia T zaginęła"	!LO:TX:a:B:t=Allo moderato	!	!	!LO:TX:a:B:t=Moderato	!	!LO:TX:t=P:problem=brak oznaczenia tempa	!	!LO:TX:a:B:t=Moderato	!	!LO:TX:a:B:t=Moderato	!	!LO:TX:a:B:t=Moderato	!
4F\	3	f	4ff\	f	2.ryy	4F\	Cre-	.	2.ryy	4a\	Cre-	.	4ff\	Cre-	4A/	.	4f\	.	4ff'\	.	4aa\	.
4C\	5	.	4ee\	.	.	4C\	-do	.	.	4g\	-do	.	4ee\	-do	4c/	.	4g\	.	4ee'\	.	4gg\	.
4r	.	.	4r	.	.	4r	.	.	.	4r	.	.	4r	.	4r	.	4r	.	4r	.	4r	.
=2	=2	=2	=2	=2	=2	=2	=2	=2	=2	=2	=2	=2	=2	=2	=2	=2	=2	=2	=2	=2	=2	=2
*	*	*	*	*	*	*	*ij	*	*	*	*ij	*	*	*ij	*	*	*	*	*	*	*	*
4D\	3	.	4dd\	.	2.ryy	4D\	Cre-	.	2.ryy	4f\	Cre-	.	4dd\	Cre-	4A/	.	4a\	.	4dd\	.	4ff\	.
4AA/	5 #	.	4cc#X\	.	.	4AA/	-do	.	.	4e\	-do	.	4cc#X\	-do	4A/	.	4a\	.	4cc#X\	.	4ee\	.
*	*	*	*	*	*	*	*Xij	*	*	*	*Xij	*	*	*Xij	*	*	*	*	*	*	*	*
4r	.	.	4r	.	.	4r	.	.	.	4r	.	.	4r	.	4r	.	4r	.	4r	.	4r	.
=3	=3	=3	=3	=3	=3	=3	=3	=3	=3	=3	=3	=3	=3	=3	=3	=3	=3	=3	=3	=3	=3	=3
*2\right	*	*	*tremolo	*	*	*	*	*	*	*	*	*	*	*	*	*	*	*	*2\right	*	*2\right	*
!	!	!	!	!	!	!	!	!	!	!	!	!	!	!	!LO:TX:a:t=1	!	!LO:TX:a:t=1.	!	!	!	!	!
2B-\	3	.	8f/L	.	2.ryy	4BB-/	in	.	2.ryy	4f\	in	.	8a\L	in	2.r	.	2.r	.	2a\	.	2dd\	.
.	.	.	8f/	.	.	.	.	.	.	.	.	.	8dd\J	.	.	.	.	.	.	.	.	.
.	.	.	8f/	.	.	4B-\	u-	.	.	4f\	u-	.	4.dd\	u-	.	.	.	.	.	.	.	.
.	.	.	8f/J	.	.	.	.	.	.	.	.	.	.	.	.	.	.	.	.	.	.	.
*	*	*	*Xtremolo	*	*	*	*	*	*	*	*	*	*	*	*	*	*	*	*	*	*	*
4F#X\	6 3	.	8a/L	.	.	4F#X\	-num	.	.	4cc\	-num	.	.	.	.	.	.	.	4ccn\	.	4ff#X\	.
.	.	.	8a/J	.	.	.	.	.	.	.	.	.	8a\	-num	.	.	.	.	.	.	.	.
=4	=4	=4	=4	=4	=4	=4	=4	=4	=4	=4	=4	=4	=4	=4	=4	=4	=4	=4	=4	=4	=4	=4
4G\	4 2	.	4a/	.	2.ryy	4G\	De-	.	2.ryy	4a\	De-	.	4cc\	De-	4a\	.	4a\	.	4cc\	.	4aa\	.
4GG/	3	.	4g/	.	.	4G\	-um	.	.	4g\	-um	.	4b-\	-um	4g\	.	4g\	.	4b-\	.	4gg\	.
4r	.	.	4r	.	.	4r	.	.	.	4r	.	.	4r	.	4r	.	4r	.	4r	.	4r	.
=5	=5	=5	=5	=5	=5	=5	=5	=5	=5	=5	=5	=5	=5	=5	=5	=5	=5	=5	=5	=5	=5	=5
!	!	!	!	!	!	!	!	!	!	!	!	!	!	!	!LO:TX:a:t=4	!	!LO:TX:a:t=4	!	!LO:TX:a:t=4	!	!LO:TX:a:t=4	!
4C/	7_ 5_	p	4e/	p	2.ryy	4C/	pa-	.	2.ryy	4g\	pa-	.	8b-\	Pa-	0.r	.	0.r	.	0.r	.	0.r	.
.	.	.	.	.	.	.	.	.	.	.	.	.	8r	.	.	.	.	.	.	.	.	.
4r	.	.	8.e/L	.	.	8.C/	-trem	.	.	8g\	-trem	.	8b-\	-trem	.	.	.	.	.	.	.	.
.	.	.	.	.	.	.	.	.	.	8g\	Om-	.	8b-\	Om-	.	.	.	.	.	.	.	.
.	.	.	16e/Jk	.	.	16C/	Om-	.	.	.	.	.	.	.	.	.	.	.	.	.	.	.
4D-X\	.	.	8.e/L	.	.	8D-X/	-ni-	.	.	8g\	-ni-	.	8b-\	-ni-	.	.	.	.	.	.	.	.
.	.	.	.	.	.	8D-/	-po-	.	.	8g\	-po-	.	8b-\	-po-	.	.	.	.	.	.	.	.
.	.	.	16e/Jk	.	.	.	.	.	.	.	.	.	.	.	.	.	.	.	.	.	.	.
!	!	!	!	!	!	!	!	!	!	!	!	!	!LO:LB:g=original	!	!	!	!	!	!	!	!	!
=6	=6	=6	=6	=6	=6	=6	=6	=6	=6	=6	=6	=6	=6	=6	=6	=6	=6	=6	=6	=6	=6	=6
4C/	.	.	4e/	.	2.ryy	4C/	-ten-	.	2.ryy	4g\	-ten-	.	4b-\	-ten-	.	.	.	.	.	.	.	.
4C/	.	.	4G/	.	.	4C/	-tem	.	.	4g\	-tem	.	4b-\	-tem	.	.	.	.	.	.	.	.
4r	x	.	4r	.	.	4r	.	.	.	4r	.	.	4r	.	.	.	.	.	.	.	.	.
!	!	!	!	!	!	!	!	!	!	!LO:LB:g=original	!	!	!	!	!	!	!	!	!	!	!	!
=7	=7	=7	=7	=7	=7	=7	=7	=7	=7	=7	=7	=7	=7	=7	=7	=7	=7	=7	=7	=7	=7	=7
4C/	7_ 5_	.	8.e/L	.	2.ryy	8.C/	fa-	.	2.ryy	8.g\	fa-	.	8.b-\	fa-	.	.	.	.	.	.	.	.
.	.	.	16e/Jk	.	.	16C/	-cto-	.	.	16g\	-cto-	.	16b-\	-cto-	.	.	.	.	.	.	.	.
*	*	*	*tremolo	*	*	*	*	*	*	*	*	*	*	*	*	*	*	*	*	*	*	*
4r	.	.	8e/L	.	.	8C/	-rem	.	.	8g\	-rem	.	8b-\	-rem	.	.	.	.	.	.	.	.
.	.	.	8e/	.	.	8C/	Cae-	.	.	8g\	cae-	.	8b-\	Cae-	.	.	.	.	.	.	.	.
4D-X/	.	.	8e/	.	.	8D-X/	-li	.	.	8g\	-li	.	8b-\	-li	.	.	.	.	.	.	.	.
.	.	.	8e/J	.	.	8D-/	et	.	.	8g\	et	.	8b-\	et	.	.	.	.	.	.	.	.
*	*	*	*Xtremolo	*	*	*	*	*	*	*	*	*	*	*	*	*	*	*	*	*	*	*
!	!	!	!	!	!	!LO:LB:g=original	!	!	!	!	!	!	!	!	!	!	!	!	!	!	!	!
=8	=8	=8	=8	=8	=8	=8	=8	=8	=8	=8	=8	=8	=8	=8	=8	=8	=8	=8	=8	=8	=8	=8
4C/	.	.	4e/	.	2.ryy	4C/	ter-	.	2.ryy	4g\	ter-	.	4b-\	ter-	.	.	.	.	.	.	.	.
4C/	.	.	4G/	.	.	4C/	-re	.	.	4g\	-re	.	4b-\	-re	.	.	.	.	.	.	.	.
4r	x	.	4r	.	.	4r	.	.	.	4r	.	.	4r	.	.	.	.	.	.	.	.	.
!LO:LB:g=original	!	!	!LO:LB:g=original	!	!	!	!	!	!	!	!	!	!	!	!	!	!	!	!	!	!	!
=9	=9	=9	=9	=9	=9	=9	=9	=9	=9	=9	=9	=9	=9	=9	=9	=9	=9	=9	=9	=9	=9	=9
*	*	*	*2\right	*	*	*	*	*	*	*	*	*	*	*	*	*	*	*	*	*	*	*
*	*	*	*tremolo	*	*	*	*	*	*	*	*	*	*	*	*	*	*2\right	*	*	*	*	*
2F\	3	f	8cc\L	.	2.ryy	8F\	vi-	.	2.ryy	8a\	vi-	.	8ff\	vi-	2A/	.	2f\	.	2ff\	.	2aa\	.
.	.	.	8cc\	.	.	8F\	-si-	.	.	8a\	-si-	.	8ff\	-si-	.	.	.	.	.	.	.	.
.	.	.	8cc\	.	.	8A\	-bi-	.	.	8a\	-bi-	.	8ff\	-bi-	.	.	.	.	.	.	.	.
.	.	.	8cc\	.	.	8A\	-li-	.	.	8a\	-li-	.	8ff\	-li-	.	.	.	.	.	.	.	.
4E\	6 3	.	8cc\	.	.	4c\	-um	.	.	4g\	-um	.	4ee\	-um	4c/	.	4g\	.	4ee\	.	4gg\	.
.	.	.	8cc\J	.	.	.	.	.	.	.	.	.	.	.	.	.	.	.	.	.	.	.
=10	=10	=10	=10	=10	=10	=10	=10	=10	=10	=10	=10	=10	=10	=10	=10	=10	=10	=10	=10	=10	=10	=10
!	!	!	!LO:N:TREM:vis=2	!	!	!	!	!	!	!	!	!	!	!	!	!	!	!	!	!	!	!
4D\	3_	.	8g/L	.	2.ryy	4d\	om-	.	2.ryy	4f\	om-	.	4dd\	om-	2F/	.	2f\	.	2dd\	.	2ff\	.
.	.	.	8g/	.	.	.	.	.	.	.	.	.	.	.	.	.	.	.	.	.	.	.
4BBn\	.	.	8g/	.	.	4Bn\	-ni-	.	.	4f\	-ni-	.	4dd\	-ni-	.	.	.	.	.	.	.	.
.	.	.	8g/	.	.	.	.	.	.	.	.	.	.	.	.	.	.	.	.	.	.	.
4C\	3	.	8g/	.	.	4c\	-um	.	.	4e\	-um	.	4cc\	-um	4A/	.	4a\	.	4cc\	.	4ee\	.
.	.	.	8g/J	.	.	.	.	.	.	.	.	.	.	.	.	.	.	.	.	.	.	.
=11	=11	=11	=11	=11	=11	=11	=11	=11	=11	=11	=11	=11	=11	=11	=11	=11	=11	=11	=11	=11	=11	=11
*tremolo	*	*	*	*	*	*	*	*	*	*	*	*	*	*	*	*	*	*	*	*	*	*
!	!	!	!	!	!	!	!	!	!	!	!	!	!	!	!LO:TX:a:t=4	!	!LO:TX:a:t=4	!	!	!	!	!
8F\L	6 3	.	8a\L	.	2.ryy	8F\	et	.	2.ryy	8a\	et	.	8cc\	et	0.r	.	0.r	.	4a\	.	4dd\	.
8F\	.	.	8a\	.	.	8F\	in-	.	.	8a\	in-	.	8cc\	in-	.	.	.	.	.	.	.	.
8F\	.	.	8a\	.	.	8F\	-vi-	.	.	8a\	-vi-	.	8cc\	-vi-	.	.	.	.	4dd\	.	4ff\	.
8F\J	.	.	8a\J	.	.	8F\	-si-	.	.	8a\	-si-	.	8cc\	-si-	.	.	.	.	.	.	.	.
*Xtremolo	*	*	*Xtremolo	*	*	*	*	*	*	*	*	*	*	*	*	*	*	*	*	*	*	*
8F#X\L	10 5	.	8ee-X\L	.	.	4F#X\	-bi-	.	.	4a\	-bi-	.	4cc\	-bi-	.	.	.	.	4cc\	.	4aa\	.
8F#\J	.	.	8ee-\J	.	.	.	.	.	.	.	.	.	.	.	.	.	.	.	.	.	.	.
=12	=12	=12	=12	=12	=12	=12	=12	=12	=12	=12	=12	=12	=12	=12	=12	=12	=12	=12	=12	=12	=12	=12
!	!	!	!	!	!	!	!	!	!	!	!	!	!LO:SIC:v:s=4bn\	!	!	!	!	!	!	!	!	!
4G\	8 3	.	4bn\	.	2.ryy	4G\	-li-	.	2.ryy	4g\	-li-	.	4b-\	-li-	.	.	.	.	4bn\	.	4gg\	.
4A\	#6 3	.	4cc\	.	.	4A\	-um	.	.	4f#X\	-um	.	4cc\	-um	.	.	.	.	4cc\	.	4ff#X\	.
4r	.	.	4r	.	.	4r	.	.	.	4r	.	.	4r	.	.	.	.	.	4r	.	4r	.
!	!	!	!	!	!	!	!	!	!	!LO:LB:g=original	!	!	!LO:LB:g=original	!	!	!	!	!	!	!	!LO:LB:g=original	!
=13	=13	=13	=13	=13	=13	=13	=13	=13	=13	=13	=13	=13	=13	=13	=13	=13	=13	=13	=13	=13	=13	=13
4Bn\	5 3	.	4dd\	.	2.ryy	4Bn\	Cre-	.	2.ryy	4bn\	Cre-	.	4ff\	Cre-	.	.	.	.	4dd\	.	4ffn\	.
4c\	3	.	4cc\	.	.	4c\	-do	.	.	4g\	-do	.	4ee\	-do	.	.	.	.	4cc\	.	4ee\	.
4r	.	.	4r	.	.	4r	.	.	.	4r	.	.	4r	.	.	.	.	.	4r	.	4r	.
!	!	!	!	!	!	!	!	!	!	!	!	!	!	!	!	!	!	!	!LO:LB:g=original	!	!	!
=14	=14	=14	=14	=14	=14	=14	=14	=14	=14	=14	=14	=14	=14	=14	=14	=14	=14	=14	=14	=14	=14	=14
4F\	6 3	.	8a/L	.	2.ryy	4F\	in	.	2.ryy	4a\	in	.	4dd\	in	.	.	.	.	2a/	.	4dd\	.
.	.	.	8f/J	.	.	.	.	.	.	.	.	.	.	.	.	.	.	.	.	.	.	.
*	*	*	*tremolo	*	*	*	*	*	*	*	*	*	*	*	*	*	*	*	*	*	*	*
4G\	6 4	.	8fL 8G/	.	.	4G\	u-	.	.	4bn\	u-	.	4ff\	u-	.	.	.	.	.	.	4ff\	.
.	.	.	8f 8G/	.	.	.	.	.	.	.	.	.	.	.	.	.	.	.	.	.	.	.
4GG/	5 3	.	8f 8G/	.	.	4G\	-num	.	.	4f\	-num	.	4bn\	-num	.	.	.	.	4f/	.	4bn\	.
.	.	.	8fJ 8G/	.	.	.	.	.	.	.	.	.	.	.	.	.	.	.	.	.	.	.
*	*	*	*Xtremolo	*	*	*	*	*	*	*	*	*	*	*	*	*	*	*	*	*	*	*
=15	=15	=15	=15	=15	=15	=15	=15	=15	=15	=15	=15	=15	=15	=15	=15	=15	=15	=15	=15	=15	=15	=15
4C/	4 2	.	4f 4G/	.	2.ryy	4C/	De-	.	2.ryy	4g\	De-	.	4dd\	De-	4g\	.	4g\	.	4f/	.	4dd\	.
4C/	3	.	4e 4G/	.	.	4C/	-um	.	.	4g\	-um	.	4cc\	-um	4c/	.	4g\	.	4e/	.	4cc\	.
4BB-/	.	.	4r	.	.	4r	.	.	.	4r	.	.	4r	.	4r	.	4r	.	4r	.	4r	.
=16	=16	=16	=16	=16	=16	=16	=16	=16	=16	=16	=16	=16	=16	=16	=16	=16	=16	=16	=16	=16	=16	=16
*	*	*	*tremolo	*	*	*	*	*	*	*	*	*	*	*	*	*	*	*	*	*	*	*
!	!	!	!LO:N:TREM:vis=2	!	!	!LO:TX:a:t=4	!	!	!	!LO:TX:a:t=4	!	!	!	!	!LO:TX:a:t=10	!	!LO:TX:a:t=10	!	!	!LO:DY:rj	!	!
4AA/	5	p	8c/L	.	2.ryy	0.r	.	.	2.ryy	0.r	.	.	4.ee\	Et	0.r	.	0.r	.	2.e/	p	2.ee\	p
.	.	.	8e/	.	.	.	.	.	.	.	.	.	.	.	.	.	.	.	.	.	.	.
4r	.	.	8c/	.	.	.	.	.	.	.	.	.	.	.	.	.	.	.	.	.	.	.
.	.	.	8e/	.	.	.	.	.	.	.	.	.	8cc\	ex	.	.	.	.	.	.	.	.
!	!	!	!	!	!	!	!	!	!	!	!	!	!LO:SIC:v:s=8bn\	!	!	!	!	!	!	!	!	!
4r	.	.	8c/	.	.	.	.	.	.	.	.	.	8b-\	pa-	.	.	.	.	.	.	.	.
.	.	.	8e/J	.	.	.	.	.	.	.	.	.	8a\	-tre	.	.	.	.	.	.	.	.
=17	=17	=17	=17	=17	=17	=17	=17	=17	=17	=17	=17	=17	=17	=17	=17	=17	=17	=17	=17	=17	=17	=17
4BBn/	4 3	.	8d/L	.	2.ryy	.	.	.	2.ryy	.	.	.	8a\	na-	.	.	.	.	2.e/	.	2.ee\	.
.	.	.	8e/	.	.	.	.	.	.	.	.	.	(4g#X\	-tum	.	.	.	.	.	.	.	.
4r	.	.	8d/	.	.	.	.	.	.	.	.	.	.	.	.	.	.	.	.	.	.	.
.	.	.	8e/	.	.	.	.	.	.	.	.	.	8a\)	.	.	.	.	.	.	.	.	.
!	!	!	!	!	!	!	!	!	!	!	!	!	!LO:SIC:v:s=8bn\	!	!	!	!	!	!	!	!	!
4r	.	.	8d/	.	.	.	.	.	.	.	.	.	8b-\	an-	.	.	.	.	.	.	.	.
.	.	.	8e/J	.	.	.	.	.	.	.	.	.	8cc\	-te	.	.	.	.	.	.	.	.
=18	=18	=18	=18	=18	=18	=18	=18	=18	=18	=18	=18	=18	=18	=18	=18	=18	=18	=18	=18	=18	=18	=18
!	!	!	!LO:SIC:v:s=8Bn/L	!	!	!	!	!	!	!	!	!	!	!	!	!	!	!	!	!	!	!
4GG#X/	6 3	.	8B-/L	.	2.ryy	.	.	.	2.ryy	.	.	.	8dd\L	om-	.	.	.	.	2.e/	.	2.ee\	.
.	.	.	8e/	.	.	.	.	.	.	.	.	.	8ff\J	.	.	.	.	.	.	.	.	.
!	!	!	!LO:SIC:v:s=8Bn/	!	!	!	!	!	!	!	!	!	!	!	!	!	!	!	!	!	!	!
4r	.	.	8B-/	.	.	.	.	.	.	.	.	.	8ee\L	-ni-	.	.	.	.	.	.	.	.
!	!	!	!	!	!	!	!	!	!	!	!	!	!LO:SIC:v:s=8bn\J	!	!	!	!	!	!	!	!	!
.	.	.	8e/	.	.	.	.	.	.	.	.	.	8b-\J	.	.	.	.	.	.	.	.	.
!	!	!	!LO:SIC:v:s=8Bn/	!	!	!	!	!	!	!	!	!	!	!	!	!	!	!	!	!	!	!
4r	.	.	8B-/	.	.	.	.	.	.	.	.	.	8.ee\	-a	.	.	.	.	.	.	.	.
.	.	.	8e/J	.	.	.	.	.	.	.	.	.	.	.	.	.	.	.	.	.	.	.
.	.	.	.	.	.	.	.	.	.	.	.	.	16dd\	se-	.	.	.	.	.	.	.	.
!LO:LB:g=original	!	!	!	!	!	!	!	!	!	!	!	!	!	!	!	!	!	!	!	!	!	!
=19	=19	=19	=19	=19	=19	=19	=19	=19	=19	=19	=19	=19	=19	=19	=19	=19	=19	=19	=19	=19	=19	=19
4AA/	3	.	8c/L	.	2.ryy	.	.	.	2.ryy	.	.	.	4dd\	-cu-	.	.	.	.	2.e/	.	2.ee\	.
.	.	.	8e/	.	.	.	.	.	.	.	.	.	.	.	.	.	.	.	.	.	.	.
4r	.	.	8c/	.	.	.	.	.	.	.	.	.	4cc\	-la	.	.	.	.	.	.	.	.
.	.	.	8e/	.	.	.	.	.	.	.	.	.	.	.	.	.	.	.	.	.	.	.
4r	.	.	8c/	.	.	.	.	.	.	.	.	.	4r	.	.	.	.	.	.	.	.	.
.	.	.	8e/J	.	.	.	.	.	.	.	.	.	.	.	.	.	.	.	.	.	.	.
!	!	!	!	!	!	!LO:LB:g=original	!	!	!	!	!	!	!	!	!	!	!	!	!	!	!	!
=20	=20	=20	=20	=20	=20	=20	=20	=20	=20	=20	=20	=20	=20	=20	=20	=20	=20	=20	=20	=20	=20	=20
!	!	!	!	!	!	!	!	!	!	!LO:TX:a:t=a	!	!	!LO:TX:b:t=cis	!	!	!	!	!	!	!	!	!
4G\	#4_ 2_	.	8e/L	.	2.ryy	4G/	De-	.	2.ryy	4a\	De-	.	4cc#X\	De-	0.r	.	0.r	.	4ee\	.	4gg\	.
.	.	.	8g/	.	.	.	.	.	.	.	.	.	.	.	.	.	.	.	.	.	.	.
!	!	!	!	!	!	!	!	!	!	!LO:TX:a:t=a	!	!	!LO:TX:b:t=cis	!	!	!	!	!	!	!	!	!
4G\	.	.	8e/	.	.	4G/	-um	.	.	4a\	-um	.	4cc#\	-um	.	.	.	.	4ee\	.	4gg\	.
.	.	.	8g/	.	.	.	.	.	.	.	.	.	.	.	.	.	.	.	.	.	.	.
!	!	!	!	!	!	!	!	!	!	!LO:TX:a:t=a	!	!	!LO:TX:b:t=cis	!	!	!	!	!	!	!	!	!
4G\	.	.	8e/	.	.	4G/	de	.	.	4a\	de	.	4cc#\	de	.	.	.	.	4ee\	.	4gg\	.
.	.	.	8g/J	.	.	.	.	.	.	.	.	.	.	.	.	.	.	.	.	.	.	.
!	!	!	!LO:LB:g=original	!	!	!	!	!	!	!	!	!	!LO:LB:g=original	!	!	!	!	!	!	!	!	!
=21	=21	=21	=21	=21	=21	=21	=21	=21	=21	=21	=21	=21	=21	=21	=21	=21	=21	=21	=21	=21	=21	=21
!	!	!	!	!	!	!	!	!	!	!LO:TX:a:t=a	!	!	!	!	!	!	!	!	!	!	!	!
4F\	6 3	.	8f/L	.	2.ryy	4F/	De-	.	2.ryy	4a\	De-	.	4dd\	de-	.	.	.	.	4dd\	.	4ff\	.
.	.	.	8a/	.	.	.	.	.	.	.	.	.	.	.	.	.	.	.	.	.	.	.
!	!	!	!	!	!	!	!	!	!	!LO:TX:a:t=a	!	!	!	!	!	!	!	!	!	!	!	!
4F\	.	.	8f/	.	.	4F/	-o	.	.	4a\	-o	.	4dd\	-o	.	.	.	.	4dd\	.	4ff\	.
.	.	.	8a/	.	.	.	.	.	.	.	.	.	.	.	.	.	.	.	.	.	.	.
4r	.	.	8f/	.	.	4r	.	.	.	4r	.	.	4r	.	.	.	.	.	4r	.	4r	.
.	.	.	8a/J	.	.	.	.	.	.	.	.	.	.	.	.	.	.	.	.	.	.	.
=22	=22	=22	=22	=22	=22	=22	=22	=22	=22	=22	=22	=22	=22	=22	=22	=22	=22	=22	=22	=22	=22	=22
!	!	!	!	!	!	!	!	!	!	!LO:TX:a:t=g	!	!	!LO:TX:b:t=h	!	!	!	!	!	!	!	!	!
4F\	n4_ 2_	.	8d/L	.	2.ryy	4F/	lu-	.	2.ryy	4g\	lu-	.	4bn\	lu-	.	.	.	.	4dd\	.	4ff\	.
.	.	.	8f/	.	.	.	.	.	.	.	.	.	.	.	.	.	.	.	.	.	.	.
!	!	!	!	!	!	!	!	!	!	!LO:TX:a:t=g	!	!	!LO:TX:b:t=h	!	!	!	!	!	!	!	!	!
4F\	.	.	8d/	.	.	4F/	-men	.	.	4g\	-men	.	4b\	-men	.	.	.	.	4dd\	.	4ff\	.
.	.	.	8f/	.	.	.	.	.	.	.	.	.	.	.	.	.	.	.	.	.	.	.
!	!	!	!	!	!	!	!	!	!	!	!	!	!LO:TX:b:t=h	!	!	!	!	!	!	!	!	!
4F\	.	.	8d/	.	.	8F/	de	.	.	8g\	de	.	8b\	de	.	.	.	.	4dd\	.	4ff\	.
!	!	!	!	!	!	!	!	!	!	!LO:TX:a:t=g	!	!	!LO:TX:b:t=h	!	!	!	!	!	!	!	!	!
.	.	.	8f/J	.	.	8F/	lu-	.	.	8g\	lu-	.	8b\	lu-	.	.	.	.	.	.	.	.
=23	=23	=23	=23	=23	=23	=23	=23	=23	=23	=23	=23	=23	=23	=23	=23	=23	=23	=23	=23	=23	=23	=23
!	!	!	!	!	!	!	!	!	!	!LO:TX:a:t=g	!	!	!	!	!	!	!	!	!	!	!	!
4E\	6 3	.	8e/L	.	2.ryy	4E/	-mi-	.	2.ryy	4g\	-mi-	.	4dd\	-mi-	.	.	.	.	4dd\	.	4ee\	.
.	.	.	8g/	.	.	.	.	.	.	.	.	.	.	.	.	.	.	.	.	.	.	.
!	!	!	!	!	!	!	!	!	!	!LO:TX:a:t=g	!	!	!	!	!	!	!	!	!	!	!	!
4E\	.	.	8e/	.	.	4E/	-ne	.	.	4g\	-ne	.	4cc\	-ne	.	.	.	.	4cc\	.	4ee\	.
.	.	.	8g/	.	.	.	.	.	.	.	.	.	.	.	.	.	.	.	.	.	.	.
4r	.	.	8e/	.	.	4r	.	.	.	4r	.	.	4r	.	.	.	.	.	4r	.	4r	.
.	.	.	8g/J	.	.	.	.	.	.	.	.	.	.	.	.	.	.	.	.	.	.	.
!	!	!	!	!	!	!	!	!	!	!LO:LB:g=original	!	!	!	!	!	!	!	!	!	!	!LO:LB:g=original	!
=24	=24	=24	=24	=24	=24	=24	=24	=24	=24	=24	=24	=24	=24	=24	=24	=24	=24	=24	=24	=24	=24	=24
*	*	*	*	*	*	*2\right	*	*	*	*2\right	*	*	*	*	*	*	*	*	*	*	*	*
2F\	n6 2_	.	8g/L	.	2.ryy	2F\	de-	.	2.ryy	2g\	De-	.	(4.dd\	De-	1.r	.	1.r	.	2f/	.	2dd\	.
.	.	.	8g/	.	.	.	.	.	.	.	.	.	.	.	.	.	.	.	.	.	.	.
.	.	.	8g/	.	.	.	.	.	.	.	.	.	.	.	.	.	.	.	.	.	.	.
!	!	!	!	!	!	!	!	!	!	!	!	!	!LO:SIC:v:s=8bn\)	!	!	!	!	!	!	!	!	!
.	.	.	8g/	.	.	.	.	.	.	.	.	.	8b-\)	.	.	.	.	.	.	.	.	.
4E\	6 _	.	8g/	.	.	4E\	-um	.	.	4g\	-um	.	8cc\L	-um	.	.	.	.	4e/	.	4cc\	.
.	.	.	8g/J	.	.	.	.	.	.	.	.	.	8ee\J	.	.	.	.	.	.	.	.	.
=25	=25	=25	=25	=25	=25	=25	=25	=25	=25	=25	=25	=25	=25	=25	=25	=25	=25	=25	=25	=25	=25	=25
*	*	*	*	*	*	*	*	*	*	*	*	*	*2\right	*	*	*	*	*	*	*	*	*
2BBn/	7 5 _	.	8g/L	.	2.ryy	2Bn\	ve-	.	2.ryy	2g\	ve-	.	2ff\	ve-	.	.	.	.	2dd\	.	2ff\	.
.	.	.	8g/	.	.	.	.	.	.	.	.	.	.	.	.	.	.	.	.	.	.	.
.	.	.	8g/	.	.	.	.	.	.	.	.	.	.	.	.	.	.	.	.	.	.	.
.	.	.	8g/	.	.	.	.	.	.	.	.	.	.	.	.	.	.	.	.	.	.	.
4C/	3 _	.	8g/	.	.	4c\	-rum	.	.	4g\	-rum	.	4ee\	-rum	.	.	.	.	4cc\	.	4ee\	.
.	.	.	8g/J	.	.	.	.	.	.	.	.	.	.	.	.	.	.	.	.	.	.	.
=26	=26	=26	=26	=26	=26	=26	=26	=26	=26	=26	=26	=26	=26	=26	=26	=26	=26	=26	=26	=26	=26	=26
4F\	6_ 3_	.	8a/L	.	2.ryy	4F\	de	.	2.ryy	4a\	de	.	4dd\	de	2.C/	.	2.c/	.	2.f/	.	2.dd\	.
.	.	.	8a/	.	.	.	.	.	.	.	.	.	.	.	.	.	.	.	.	.	.	.
4F\	.	.	8a/	.	.	4F\	De-	.	.	4a\	De-	.	4dd\	De-	.	.	.	.	.	.	.	.
.	.	.	8a/	.	.	.	.	.	.	.	.	.	.	.	.	.	.	.	.	.	.	.
4F\	.	.	8a/	.	.	4F\	-o	.	.	4a\	-o	.	4dd\	-o	.	.	.	.	.	.	.	.
.	.	.	8a/J	.	.	.	.	.	.	.	.	.	.	.	.	.	.	.	.	.	.	.
!	!	!	!	!	!	!	!	!	!	!	!	!	!	!	!	!	!	!	!LO:LB:g=original	!	!	!
=27	=27	=27	=27	=27	=27	=27	=27	=27	=27	=27	=27	=27	=27	=27	=27	=27	=27	=27	=27	=27	=27	=27
4F#X\	-7_ 5_	<	8a/L	.	2.ryy	2F#X\	ve-	.	2.ryy	2a\	ve-	.	2ee-X\	ve-	2.C/	.	2.c/	.	2.f#X/	.	2.dd#X\	.
.	.	.	8a/	.	.	.	.	.	.	.	.	.	.	.	.	.	.	.	.	.	.	.
4F#\	.	.	8a/	.	.	.	.	.	.	.	.	.	.	.	.	.	.	.	.	.	.	.
.	.	.	8a/	.	.	.	.	.	.	.	.	.	.	.	.	.	.	.	.	.	.	.
4F#\	.	.	8a/	.	.	4F#\	-ro	.	.	4a\	-ro	.	4ee-\	-ro	.	.	.	.	.	.	.	.
.	.	.	8a/J	.	.	.	.	.	.	.	.	.	.	.	.	.	.	.	.	.	.	.
=28	=28	=28	=28	=28	=28	=28	=28	=28	=28	=28	=28	=28	=28	=28	=28	=28	=28	=28	=28	=28	=28	=28
4G\	6 4_	.	8cc\L	.	2.ryy	8G\	ge-	.	2.ryy	8cc\	ge-	.	8ee\	ge-	4C/	.	4c/	.	4g/	.	4ee\	.
.	.	.	8cc\	.	.	8G\	-ni-	.	.	8cc\	-ni-	.	8ee\	-ni-	.	.	.	.	.	.	.	.
4A\	6 _	[	8cc\	.	.	8A\	-tum	.	.	8cc\	-tum	.	8ff\	-tum	4C/	.	4c/	.	4a/	.	4ff\	.
.	7 _	.	8cc\	.	.	8A\	no(n)	.	.	8cc\	non	.	8ff\	non	.	.	.	.	.	.	.	.
4A-X\	6 _	.	8cc\	.	.	8A-X\	fa-	.	.	8cc\	fa-	.	8ff#X\	fa-	4C/	.	4c/	.	4cc\	.	4ff#X\	.
.	.	.	8cc\J	.	.	8A-\	-ctum	.	.	8cc\	-ctum	.	8ff#\	-ctum	.	.	.	.	.	.	.	.
!LO:LB:g=original	!	!	!	!	!	!	!LO:LB:g=original	!	!	!	!	!	!LO:LB:g=original	!	!	!	!	!	!	!	!	!
=29	=29	=29	=29	=29	=29	=29	=29	=29	=29	=29	=29	=29	=29	=29	=29	=29	=29	=29	=29	=29	=29	=29
*	*	*	*	*	*	*	*	*	*	*	*	*	*	*	*rep	*	*	*	*	*	*	*
4G\	8 4	.	8cc\L	.	2.ryy	8G\	con-	.	2.ryy	8cc\	con-	.	8gg\	con-	4C/	.	4c/	.	4cc\	.	4gg\	.
.	.	.	8cc\	.	.	8G\	-sub-	.	.	8cc\	-sub-	.	8gg\	-sub-	.	.	.	.	.	.	.	.
4F#X\	3 _	.	8cc\	.	.	8A\	-stan-	.	.	8cc\	-stan-	.	8ff#X\	-stan-	4C/	.	4c/	.	4cc\	.	4aa\	.
.	.	.	8cc\J	.	.	8A\	-ti-	.	.	8cc\	-ti-	.	8ff#\	-ti-	.	.	.	.	.	.	.	.
*	*	*	*Xtremolo	*	*	*	*	*	*	*	*	*	*	*	*	*	*	*	*	*	*	*
4Fn\	4 _	.	8dd\L	.	.	8Bn\	-a-	.	.	8cc\	-a-	.	8ffn\	-a-	4C/	.	4c/	.	4dd\	.	4bbn\	.
.	.	.	8dd\J	.	.	8B\	-lem	.	.	8cc\	-lem	.	8ff\	-lem	.	.	.	.	.	.	.	.
*	*	*	*	*	*	*	*	*	*	*	*	*	*	*	*Xrep	*	*	*	*	*	*	*
=30	=30	=30	=30	=30	=30	=30	=30	=30	=30	=30	=30	=30	=30	=30	=30	=30	=30	=30	=30	=30	=30	=30
!	!	!	!	!	!	!	!	!	!	!	!	!	!	!	!LO:SIC:v:s=4f\	!	!LO:SIC:v:s=4f\	!	!	!	!	!
4G#X\	7 5	f	4ff\	.	2.ryy	4G#X\	Pa-	.	2.ryy	4dd\	pa-	.	4ff\	Pa-	4g\	.	4g\	.	4dd\	.	4ff\	.
!	!	!	!	!	!	!	!	!	!	!	!	!	!	!	!	!	!LO:SIC:v:s=4e\	!	!	!	!	!
4A\	5 3	.	4ee\	.	.	4A\	-tri	.	.	4cc\	-tri	.	4ee\	-tri	4c/	.	4g\	.	4cc\	.	4ee\	.
4r	.	.	4r	.	.	4r	.	.	.	4r	.	.	4r	.	4r	.	4r	.	4r	.	4r	.
!	!	!	!	!	!	!	!	!	!	!LO:LB:g=original	!	!	!	!	!	!	!	!	!	!	!	!
=31	=31	=31	=31	=31	=31	=31	=31	=31	=31	=31	=31	=31	=31	=31	=31	=31	=31	=31	=31	=31	=31	=31
4E\	#	.	4dd\	.	2.ryy	4E\	Cre-	.	2.ryy	4bn\	Cre-	.	4dd\	Cre-	4r	.	4r	.	4bn\	.	4dd\	.
4AA/	8 5	.	4ee 4cc\	.	.	4A\	-do	.	.	4a\	-do	.	4cc\	-do	4A/	.	4a\	.	4a\	.	4cc\	.
4r	.	.	4r	.	.	4r	.	.	.	4r	.	.	4r	.	4r	.	4r	.	4r	.	4r	.
!	!	!	!	!	!	!	!	!	!	!	!	!	!	!	!LO:PB:g=original	!	!	!	!	!	!	!
=32	=32	=32	=32	=32	=32	=32	=32	=32	=32	=32	=32	=32	=32	=32	=32	=32	=32	=32	=32	=32	=32	=32
!	!	!	!	!	!	!LO:TX:a:t=2	!	!	!	!LO:TX:a:t=2	!	!	!LO:TX:a:t=2	!	!LO:TX:a:t=2	!	!LO:TX:a:t=2	!	!LO:TX:a:t=2	!	!LO:TX:a:t=2	!
4F\	6 5	.	4A/	.	2.ryy	1.r	.	.	2.ryy	1.r	.	.	1.r	.	1.r	.	1.r	.	1.r	.	1.r	.
4r	.	.	4r	.	.	.	.	.	.	.	.	.	.	.	.	.	.	.	.	.	.	.
4r	.	.	4r	.	.	.	.	.	.	.	.	.	.	.	.	.	.	.	.	.	.	.
=33	=33	=33	=33	=33	=33	=33	=33	=33	=33	=33	=33	=33	=33	=33	=33	=33	=33	=33	=33	=33	=33	=33
!LO:TX:a:t=1	!	!	!LO:TX:a:t=1	!	!	!	!	!	!	!	!	!	!	!	!	!	!	!	!	!	!	!
2.r	.	.	2.r	.	2.ryy	.	.	.	2.ryy	.	.	.	.	.	.	.	.	.	.	.	.	.
!	!	!	!LO:LB:g=original	!	!	!	!	!	!	!	!	!	!	!	!	!	!LO:PB:g=original	!	!	!	!	!
=34	=34	=34	=34	=34	=34	=34	=34	=34	=34	=34	=34	=34	=34	=34	=34	=34	=34	=34	=34	=34	=34	=34
*tremolo	*	*	*tremolo	*	*	*	*	*	*	*	*	*	*	*	*	*	*	*	*	*	*	*
8G\L	6 4	.	16ccLL 16g\	.	2.ryy	2G\	per	.	2.ryy	2cc\	per	.	2ee\	per	2.c/	.	2.g\	.	4.ee\	.	4.gg\	.
.	.	.	16cc 16g\	.	.	.	.	.	.	.	.	.	.	.	.	.	.	.	.	.	.	.
8G\	.	.	16cc 16g\	.	.	.	.	.	.	.	.	.	.	.	.	.	.	.	.	.	.	.
.	.	.	16cc 16g\	.	.	.	.	.	.	.	.	.	.	.	.	.	.	.	.	.	.	.
8G\	.	.	16cc 16g\	.	.	.	.	.	.	.	.	.	.	.	.	.	.	.	.	.	.	.
.	.	.	16cc 16g\	.	.	.	.	.	.	.	.	.	.	.	.	.	.	.	.	.	.	.
8G\	.	.	16cc 16g\	.	.	.	.	.	.	.	.	.	.	.	.	.	.	.	8ee\L	.	8gg\L	.
.	.	.	16cc 16g\	.	.	.	.	.	.	.	.	.	.	.	.	.	.	.	.	.	.	.
8G\	.	.	16cc 16g\	.	.	4G\	quem	.	.	4cc\	quem	.	4ee\	quem	.	.	.	.	8ee\	.	8gg\	.
.	.	.	16cc 16g\	.	.	.	.	.	.	.	.	.	.	.	.	.	.	.	.	.	.	.
8G\J	.	.	16cc 16g\	.	.	.	.	.	.	.	.	.	.	.	.	.	.	.	8ee\J	.	8gg\J	.
.	.	.	16ccJJ 16g\	.	.	.	.	.	.	.	.	.	.	.	.	.	.	.	.	.	.	.
=35	=35	=35	=35	=35	=35	=35	=35	=35	=35	=35	=35	=35	=35	=35	=35	=35	=35	=35	=35	=35	=35	=35
8G\L	.	.	16fLL 16G/	.	2.ryy	4G\	om-	.	2.ryy	4bn\	om-	.	4dd\	om-	4g\	.	4g\	.	4.dd\	.	4.ff\	.
.	.	.	16f 16G/	.	.	.	.	.	.	.	.	.	.	.	.	.	.	.	.	.	.	.
8G\	.	.	16f 16G/	.	.	.	.	.	.	.	.	.	.	.	.	.	.	.	.	.	.	.
.	.	.	16f 16G/	.	.	.	.	.	.	.	.	.	.	.	.	.	.	.	.	.	.	.
8G\	.	.	16f 16G/	.	.	4G\	-ni-	.	.	4b\	-ni-	.	4dd\	-ni-	4g\	.	4g\	.	.	.	.	.
.	.	.	16f 16G/	.	.	.	.	.	.	.	.	.	.	.	.	.	.	.	.	.	.	.
8G\	.	.	16f 16G/	.	.	.	.	.	.	.	.	.	.	.	.	.	.	.	8dd\L	.	8ff\L	.
.	.	.	16f 16G/	.	.	.	.	.	.	.	.	.	.	.	.	.	.	.	.	.	.	.
8G\	.	.	16f 16G/	.	.	4G\	-a	.	.	4b\	-a	.	4dd\	-a	4g\	.	4g\	.	8dd\	.	8ff\	.
.	.	.	16f 16G/	.	.	.	.	.	.	.	.	.	.	.	.	.	.	.	.	.	.	.
8G\J	.	.	16f 16G/	.	.	.	.	.	.	.	.	.	.	.	.	.	.	.	8dd\J	.	8ff\J	.
.	.	.	16fJJ 16G/	.	.	.	.	.	.	.	.	.	.	.	.	.	.	.	.	.	.	.
!	!	!	!	!	!	!	!	!	!	!	!	!	!	!	!	!	!	!	!	!	!LO:LB:g=original	!
=36	=36	=36	=36	=36	=36	=36	=36	=36	=36	=36	=36	=36	=36	=36	=36	=36	=36	=36	=36	=36	=36	=36
*	*	*	*	*	*	*	*ij	*	*	*	*	*	*	*ij	*	*	*	*	*	*	*	*
8GG/L	5 3	.	16eLL 16G/	.	2.ryy	4G\	om-	.	2.ryy	4e\	om-	.	4cc\	om-	2.c/	.	2.g\	.	4.cc\	.	4.ee\	.
.	.	.	16e 16G/	.	.	.	.	.	.	.	.	.	.	.	.	.	.	.	.	.	.	.
8GG/	.	.	16e 16G/	.	.	.	.	.	.	.	.	.	.	.	.	.	.	.	.	.	.	.
.	.	.	16e 16G/	.	.	.	.	.	.	.	.	.	.	.	.	.	.	.	.	.	.	.
8GG/	.	.	16e 16G/	.	.	4G\	-ni-	.	.	4e\	-ni-	.	4cc\	-ni-	.	.	.	.	.	.	.	.
.	.	.	16e 16G/	.	.	.	.	.	.	.	.	.	.	.	.	.	.	.	.	.	.	.
8GG/	.	.	16e 16G/	.	.	.	.	.	.	.	.	.	.	.	.	.	.	.	8cc\L	.	8ee\L	.
.	.	.	16e 16G/	.	.	.	.	.	.	.	.	.	.	.	.	.	.	.	.	.	.	.
8GG/	.	.	16e 16G/	.	.	4G\	-a	.	.	4e\	-a	.	4cc\	-a	.	.	.	.	8cc\	.	8ee\	.
*	*	*	*	*	*	*	*Xij	*	*	*	*	*	*	*Xij	*	*	*	*	*	*	*	*
.	.	.	16e 16G/	.	.	.	.	.	.	.	.	.	.	.	.	.	.	.	.	.	.	.
8GG/J	.	.	16e 16G/	.	.	.	.	.	.	.	.	.	.	.	.	.	.	.	8cc\J	.	8ee\J	.
.	.	.	16eJJ 16G/	.	.	.	.	.	.	.	.	.	.	.	.	.	.	.	.	.	.	.
=37	=37	=37	=37	=37	=37	=37	=37	=37	=37	=37	=37	=37	=37	=37	=37	=37	=37	=37	=37	=37	=37	=37
8GG/L	.	.	16dLL 16G/	.	2.ryy	2G\	fa-	.	2.ryy	2d\	fa-	.	2bn\	fa-	4g\	.	4g\	.	4.bn\	.	4.dd\	.
.	.	.	16d 16G/	.	.	.	.	.	.	.	.	.	.	.	.	.	.	.	.	.	.	.
8GG/	.	.	16d 16G/	.	.	.	.	.	.	.	.	.	.	.	.	.	.	.	.	.	.	.
.	.	.	16d 16G/	.	.	.	.	.	.	.	.	.	.	.	.	.	.	.	.	.	.	.
8GG/	.	.	16d 16G/	.	.	.	.	.	.	.	.	.	.	.	4g\	.	4g\	.	.	.	.	.
.	.	.	16d 16G/	.	.	.	.	.	.	.	.	.	.	.	.	.	.	.	.	.	.	.
8GG/	.	.	16d 16G/	.	.	.	.	.	.	.	.	.	.	.	.	.	.	.	8b\L	.	8dd\L	.
.	.	.	16d 16G/	.	.	.	.	.	.	.	.	.	.	.	.	.	.	.	.	.	.	.
8GG/	.	.	16d 16G/	.	.	4G\	-cta	.	.	4d\	-cta	.	4b\	-cta	4g\	.	4g\	.	8b\	.	8dd\	.
.	.	.	16d 16G/	.	.	.	.	.	.	.	.	.	.	.	.	.	.	.	.	.	.	.
8GG/J	.	.	16d 16G/	.	.	.	.	.	.	.	.	.	.	.	.	.	.	.	8b\J	.	8dd\J	.
.	.	.	16dJJ 16G/	.	.	.	.	.	.	.	.	.	.	.	.	.	.	.	.	.	.	.
*Xtremolo	*	*	*Xtremolo	*	*	*	*	*	*	*	*	*	*	*	*	*	*	*	*	*	*	*
!	!	!	!	!	!	!	!	!	!	!	!	!	!	!	!	!	!	!	!LO:LB:g=original	!	!	!
=38	=38	=38	=38	=38	=38	=38	=38	=38	=38	=38	=38	=38	=38	=38	=38	=38	=38	=38	=38	=38	=38	=38
!LO:TX:a:i:t=unisono:dur=9q:ext=c:problem=text with extention lines	!	!	!LO:TX:a:i:t=Solo	!	!	!	!	!	!	!	!	!	!	!	!	!	!	!	!	!	!	!
(16D-X\KL	.	.	16bn\LL	.	2.ryy	4C/	sunt	.	2.ryy	4e\	sunt	.	4cc\	sunt	4c/	.	4g\	.	2.cc\	.	4cc\	.
8.C\J)	.	.	16cc\	.	.	.	.	.	.	.	.	.	.	.	.	.	.	.	.	.	.	.
.	.	.	16cc\	.	.	.	.	.	.	.	.	.	.	.	.	.	.	.	.	.	.	.
.	.	.	16cc\JJ	.	.	.	.	.	.	.	.	.	.	.	.	.	.	.	.	.	.	.
!	!	!	!LO:TX:t=P:problem=mixed beam	!	!	!	!	!	!	!	!	!	!	!	!	!	!	!	!	!	!	!
(16D-\KL	.	.	16cc\LL	.	.	4C/	qui	.	.	4r	.	.	4cc\	qui	4C/	.	4c/	.	.	.	4r	.
8.C\J)	.	.	16c/	.	.	.	.	.	.	.	.	.	.	.	.	.	.	.	.	.	.	.
.	.	.	16c/	.	.	.	.	.	.	.	.	.	.	.	.	.	.	.	.	.	.	.
.	.	.	16c/JJ	.	.	.	.	.	.	.	.	.	.	.	.	.	.	.	.	.	.	.
!	!	!	!LO:TX:t=P:problem=mixed beam	!	!	!	!	!	!	!	!	!	!	!	!	!	!	!	!	!	!	!
(16D-\KL	.	.	16c/LL	.	.	8C/	prop-	.	.	4r	.	.	8cc\	prop-	4C/	.	4c/	.	.	.	4r	.
8.C\J)	.	.	16cc\	.	.	.	.	.	.	.	.	.	.	.	.	.	.	.	.	.	.	.
.	.	.	16cc\	.	.	8C/	-ter	.	.	.	.	.	8cc\	-ter	.	.	.	.	.	.	.	.
.	.	.	16cc\JJ	.	.	.	.	.	.	.	.	.	.	.	.	.	.	.	.	.	.	.
!	!	!	!	!	!	!LO:LB:g=original	!	!	!	!	!	!	!LO:PB:g=original	!	!	!	!	!	!	!	!	!
=39	=39	=39	=39	=39	=39	=39	=39	=39	=39	=39	=39	=39	=39	=39	=39	=39	=39	=39	=39	=39	=39	=39
*rep	*	*	*rep	*	*	*	*	*	*	*	*	*	*	*	*	*	*	*	*	*	*	*
(16D-X\KL	.	.	16bn\LL	.	2.ryy	4C\	nos-	.	2.ryy	4g\	nos-	.	4b-X\	nos-	2.c/	.	2.g\	.	2.gg\	p	2.bb-X\	p
8.C\J)	.	.	16cc\	.	.	.	.	.	.	.	.	.	.	.	.	.	.	.	.	.	.	.
.	.	.	16cc\	.	.	.	.	.	.	.	.	.	.	.	.	.	.	.	.	.	.	.
.	.	.	16cc\JJ	.	.	.	.	.	.	.	.	.	.	.	.	.	.	.	.	.	.	.
!	!	!	!LO:TX:t=P:problem=mixed beam	!	!	!	!	!	!	!	!	!	!	!	!	!	!	!	!	!	!	!
(16D-\KL	.	.	16cc\LL	.	.	4C\	-tram	.	.	4g\	-tram	.	4b-\	-tram	.	.	.	.	.	.	.	.
8.C\J)	.	.	16c/	.	.	.	.	.	.	.	.	.	.	.	.	.	.	.	.	.	.	.
.	.	.	16c/	.	.	.	.	.	.	.	.	.	.	.	.	.	.	.	.	.	.	.
.	.	.	16c/JJ	.	.	.	.	.	.	.	.	.	.	.	.	.	.	.	.	.	.	.
!	!	!	!LO:TX:t=P:problem=mixed beam	!	!	!	!	!	!	!	!	!	!	!	!	!	!	!	!	!	!	!
(16D-\KL	.	.	16c/LL	.	.	4C\	sa-	.	.	4g\	sa-	.	4b-\	sa-	.	.	.	.	.	.	.	.
8.C\J)	.	.	16cc\	.	.	.	.	.	.	.	.	.	.	.	.	.	.	.	.	.	.	.
.	.	.	16cc\	.	.	.	.	.	.	.	.	.	.	.	.	.	.	.	.	.	.	.
.	.	.	16cc\JJ	.	.	.	.	.	.	.	.	.	.	.	.	.	.	.	.	.	.	.
*Xrep	*	*	*Xrep	*	*	*	*	*	*	*	*	*	*	*	*	*	*	*	*	*	*	*
!LO:LB:g=original	!	!	!	!	!	!	!	!	!	!	!	!	!	!	!	!	!	!	!	!	!	!
=40	=40	=40	=40	=40	=40	=40	=40	=40	=40	=40	=40	=40	=40	=40	=40	=40	=40	=40	=40	=40	=40	=40
*	*	*	*rep	*	*	*	*	*	*	*	*	*	*	*	*2\right	*	*	*	*	*	*	*
(16D-X\KL	.	.	16bn\LL	.	2.ryy	4C\	-lu-	.	2.ryy	4f\	-lu-	.	4a\	-lu-	2.f\	.	2.a\	.	2.ff\	.	2.aa\	.
8.C\J)	.	.	16cc\	.	.	.	.	.	.	.	.	.	.	.	.	.	.	.	.	.	.	.
.	.	.	16cc\	.	.	.	.	.	.	.	.	.	.	.	.	.	.	.	.	.	.	.
.	.	.	16cc\JJ	.	.	.	.	.	.	.	.	.	.	.	.	.	.	.	.	.	.	.
!	!	!	!LO:TX:t=P:problem=mixed beam	!	!	!	!	!	!	!	!	!	!	!	!	!	!	!	!	!	!	!
(16D-\KL	.	.	16cc\LL	.	.	4C\	-tem	.	.	4f\	-tem	.	4a\	-tem	.	.	.	.	.	.	.	.
8.C\J)	.	.	16c/	.	.	.	.	.	.	.	.	.	.	.	.	.	.	.	.	.	.	.
.	.	.	16c/	.	.	.	.	.	.	.	.	.	.	.	.	.	.	.	.	.	.	.
.	.	.	16c/JJ	.	.	.	.	.	.	.	.	.	.	.	.	.	.	.	.	.	.	.
!	!	!	!LO:TX:t=P:problem=mixed beam	!	!	!	!	!	!	!	!	!	!	!	!	!	!	!	!	!	!	!
(16D-\KL	.	.	16c/LL	.	.	4C\	de-	.	.	4f\	de-	.	4a\	de-	.	.	.	.	.	.	.	.
8.C\J)	.	.	16cc\	.	.	.	.	.	.	.	.	.	.	.	.	.	.	.	.	.	.	.
.	.	.	16cc\	.	.	.	.	.	.	.	.	.	.	.	.	.	.	.	.	.	.	.
.	.	.	16cc\JJ	.	.	.	.	.	.	.	.	.	.	.	.	.	.	.	.	.	.	.
*	*	*	*Xrep	*	*	*	*	*	*	*	*	*	*	*	*	*	*	*	*	*	*	*
!	!	!	!	!	!	!	!	!	!	!LO:LB:g=original	!	!	!	!	!	!	!	!	!	!	!	!
=41	=41	=41	=41	=41	=41	=41	=41	=41	=41	=41	=41	=41	=41	=41	=41	=41	=41	=41	=41	=41	=41	=41
*	*	*	*rep	*	*	*	*	*	*	*	*	*	*	*	*	*	*	*	*	*	*	*
!LO:TX:t=P:problem=brak taktu nr 41	!	!	!	!	!	!	!	!	!	!	!	!	!LO:SIC:v:l:s=-scen-	!	!	!	!	!	!	!	!	!
2.ryy	.	.	16bn\LL	.	2.ryy	4C\	-scen-	.	2.ryy	4e\	-scen-	.	4g\	-sen-	2.c/	.	2.g\	.	2.ee\	.	2.gg\	.
.	.	.	16cc\	.	.	.	.	.	.	.	.	.	.	.	.	.	.	.	.	.	.	.
.	.	.	16cc\	.	.	.	.	.	.	.	.	.	.	.	.	.	.	.	.	.	.	.
.	.	.	16cc\JJ	.	.	.	.	.	.	.	.	.	.	.	.	.	.	.	.	.	.	.
!	!	!	!LO:TX:t=P:problem=mixed beam	!	!	!	!	!	!	!	!	!	!	!	!	!	!	!	!	!	!	!
.	.	.	16cc\LL	.	.	4C\	-dit	.	.	4e\	-dit	.	4g\	-dit	.	.	.	.	.	.	.	.
.	.	.	16c/	.	.	.	.	.	.	.	.	.	.	.	.	.	.	.	.	.	.	.
.	.	.	16c/	.	.	.	.	.	.	.	.	.	.	.	.	.	.	.	.	.	.	.
.	.	.	16c/JJ	.	.	.	.	.	.	.	.	.	.	.	.	.	.	.	.	.	.	.
!	!	!	!LO:TX:t=P:problem=mixed beam	!	!	!	!	!	!	!	!	!	!	!	!	!	!	!	!	!	!	!
.	.	.	16c/LL	.	.	4C\	de	.	.	4e\	de	.	4g\	de	.	.	.	.	.	.	.	.
.	.	.	16cc\	.	.	.	.	.	.	.	.	.	.	.	.	.	.	.	.	.	.	.
.	.	.	16cc\	.	.	.	.	.	.	.	.	.	.	.	.	.	.	.	.	.	.	.
.	.	.	16cc\JJ	.	.	.	.	.	.	.	.	.	.	.	.	.	.	.	.	.	.	.
*	*	*	*Xrep	*	*	*	*	*	*	*	*	*	*	*	*	*	*	*	*	*	*	*
=42	=42	=42	=42	=42	=42	=42	=42	=42	=42	=42	=42	=42	=42	=42	=42	=42	=42	=42	=42	=42	=42	=42
*tremolo	*	*	*tremolo	*	*	*	*	*	*	*	*	*	*	*	*	*	*	*	*	*	*	*
!	!	!	!	!LO:DY:a	!	!	!	!	!	!	!	!LO:DY:b	!	!	!	!LO:DY:b	!	!	!	!	!	!
16D\LL	.	.	32dLLL 32Bn;</	ff	2.ryy	2.D;\	Cae-	.	2.ryy	2.Bn;/	Cae-	ff	2.f/	Cae-	2.F;/	ff	2.f;\	ff	2.dd\	ff	2.gg#X\	ff
.	.	.	32d 32B/	.	.	.	.	.	.	.	.	.	.	.	.	.	.	.	.	.	.	.
16D\	.	.	32d 32B/	.	.	.	.	.	.	.	.	.	.	.	.	.	.	.	.	.	.	.
.	.	.	32d 32B/	.	.	.	.	.	.	.	.	.	.	.	.	.	.	.	.	.	.	.
16D\	.	.	32d 32B/	.	.	.	.	.	.	.	.	.	.	.	.	.	.	.	.	.	.	.
.	.	.	32d 32B/	.	.	.	.	.	.	.	.	.	.	.	.	.	.	.	.	.	.	.
16D\	.	.	32d 32B/	.	.	.	.	.	.	.	.	.	.	.	.	.	.	.	.	.	.	.
.	.	.	32d 32B/	.	.	.	.	.	.	.	.	.	.	.	.	.	.	.	.	.	.	.
16D\	.	.	32d 32B/	.	.	.	.	.	.	.	.	.	.	.	.	.	.	.	.	.	.	.
.	.	.	32d 32B/	.	.	.	.	.	.	.	.	.	.	.	.	.	.	.	.	.	.	.
16D\	.	.	32d 32B/	.	.	.	.	.	.	.	.	.	.	.	.	.	.	.	.	.	.	.
.	.	.	32d 32B/	.	.	.	.	.	.	.	.	.	.	.	.	.	.	.	.	.	.	.
16D\	.	.	32d 32B/	.	.	.	.	.	.	.	.	.	.	.	.	.	.	.	.	.	.	.
.	.	.	32d 32B/	.	.	.	.	.	.	.	.	.	.	.	.	.	.	.	.	.	.	.
16D\	.	.	32d 32B/	.	.	.	.	.	.	.	.	.	.	.	.	.	.	.	.	.	.	.
.	.	.	32d 32B/	.	.	.	.	.	.	.	.	.	.	.	.	.	.	.	.	.	.	.
16D\	.	.	32d 32B/	.	.	.	.	.	.	.	.	.	.	.	.	.	.	.	.	.	.	.
.	.	.	32d 32B/	.	.	.	.	.	.	.	.	.	.	.	.	.	.	.	.	.	.	.
16D\	.	.	32d 32B/	.	.	.	.	.	.	.	.	.	.	.	.	.	.	.	.	.	.	.
.	.	.	32d 32B/	.	.	.	.	.	.	.	.	.	.	.	.	.	.	.	.	.	.	.
16D\	.	.	32d 32B/	.	.	.	.	.	.	.	.	.	.	.	.	.	.	.	.	.	.	.
.	.	.	32d 32B/	.	.	.	.	.	.	.	.	.	.	.	.	.	.	.	.	.	.	.
16D\JJ	.	.	32d 32B/	.	.	.	.	.	.	.	.	.	.	.	.	.	.	.	.	.	.	.
.	.	.	32dJJJ 32B/	.	.	.	.	.	.	.	.	.	.	.	.	.	.	.	.	.	.	.
*Xtremolo	*	*	*Xtremolo	*	*	*	*	*	*	*	*	*	*	*	*	*	*	*	*	*	*	*
=43	=43	=43	=43	=43	=43	=43	=43	=43	=43	=43	=43	=43	=43	=43	=43	=43	=43	=43	=43	=43	=43	=43
!	!	!	!LO:N:vis=2	!	!	!	!	!	!	!	!	!	!	!	!	!	!LO:TX:t=P:problem=fermata na kresce taktowej	!	!	!	!	!
2.C;</	5 3	.	2c.;/	.	2.ryy	2C\	-lis	.	2.ryy	4c\	-lis	.	4en/	-lis	2C;/	.	2.g\	.	4ee\	.	4ggn\	.
.	.	.	.	.	.	.	.	.	.	4r	.	.	4r	.	.	.	.	.	4r	.	4r	.
!	!	!	!	!	!	!	!	!	!	!	!	!	!LO:TX:t=P:problem=kreska taktowa pojedyncza	!	!	!	!	!	!	!	!LO:TX:t=P:problem=fermata na kresce taktowej	!
.	.	.	.	.	.	4r	.	.	.	4r	.	.	4r	.	4r	.	.	.	4r	.	4r	.
!	!	!	!LO:LB:g=original	!	!	!	!	!	!	!	!	!	!	!	!	!	!	!	!	!	!	!
=44||	=44||	=44||	=44||	=44||	=44||	=44||	=44||	=44||	=44||	=44||	=44||	=44||	=44||	=44||	=44||	=44||	=44||	=44||	=44||	=44||	=44||	=44||
!!!key: f
*k[b-e-a-d-]	*	*	*k[b-e-a-d-]	*	*	*k[b-e-a-d-]	*	*	*	*k[b-e-a-d-]	*	*	*k[b-e-a-d-]	*	*k[b-]	*	*	*	*k[b-]	*	*k[b-]	*
*M3/4	*	*	*M3/4	*	*	*M3/4	*	*	*	*	*	*	*M3/4	*	*M3/4	*	*M3/4	*	*M3/4	*	*M3/4	*
!	!	!	!	!	!	!LO:TX:a:t=7	!	!	!	!LO:TX:a:t=7	!	!	!LO:TX:a:t=7	!	!LO:TX:a:t=19	!	!LO:TX:b:t=8	!	!LO:TX:a:t=7	!	!LO:TX:a:B:t=Andante	!
!LO:TX:a:B:t=Andante	!	!	!LO:TX:a:B:t=Andante	!	!	!LO:TX:a:B:t=Andant	!	!	!	!LO:TX:a:B:t=Andante	!	!	!LO:TX:a:B:t=Andante	!	!LO:TX:a:B:t=Andante	!	!LO:TX:a:B:t=Andante	!	!LO:TX:a:B:t=Andante	!	!LO:TX:b:t=7	!
2F\	-	p	4A-X/	.	2.ryy	0.r	.	.	2.ryy	0.r	.	.	0.r	.	2.r	.	0.r	.	0.r	.	0.r	.
.	.	.	4r	.	.	.	.	.	.	.	.	.	.	.	.	.	.	.	.	.	.	.
4r	.	.	4r	.	.	.	.	.	.	.	.	.	.	.	.	.	.	.	.	.	.	.
=45	=45	=45	=45	=45	=45	=45	=45	=45	=45	=45	=45	=45	=45	=45	=45	=45	=45	=45	=45	=45	=45	=45
4En\	6 3	.	8.g/L	.	2.ryy	.	.	.	2.ryy	.	.	.	.	.	2.r	.	.	.	.	.	.	.
.	.	.	16c/Jk	.	.	.	.	.	.	.	.	.	.	.	.	.	.	.	.	.	.	.
4F\	5 3	.	4c/	.	.	.	.	.	.	.	.	.	.	.	.	.	.	.	.	.	.	.
4r	.	.	4r	.	.	.	.	.	.	.	.	.	.	.	.	.	.	.	.	.	.	.
=46	=46	=46	=46	=46	=46	=46	=46	=46	=46	=46	=46	=46	=46	=46	=46	=46	=46	=46	=46	=46	=46	=46
2B-\	-	.	2d-X/	.	2.ryy	.	.	.	2.ryy	.	.	.	.	.	2.r	.	.	.	.	.	.	.
4r	.	.	4r	.	.	.	.	.	.	.	.	.	.	.	.	.	.	.	.	.	.	.
=47	=47	=47	=47	=47	=47	=47	=47	=47	=47	=47	=47	=47	=47	=47	=47	=47	=47	=47	=47	=47	=47	=47
4c\	4	.	4A-/	.	2.ryy	.	.	.	2.ryy	.	.	.	.	.	2.r	.	.	.	.	.	.	.
4C/	5	.	4G/	.	.	.	.	.	.	.	.	.	.	.	.	.	.	.	.	.	.	.
4r	.	.	4r	.	.	.	.	.	.	.	.	.	.	.	.	.	.	.	.	.	.	.
=48	=48	=48	=48	=48	=48	=48	=48	=48	=48	=48	=48	=48	=48	=48	=48	=48	=48	=48	=48	=48	=48	=48
8G\	5_ 3_	.	8B-/	.	2.ryy	1.r	.	.	2.ryy	1.r	.	.	1.r	.	2.r	.	0.r	.	1.r	.	1.r	.
8r	.	.	8r	.	.	.	.	.	.	.	.	.	.	.	.	.	.	.	.	.	.	.
8G\	.	.	8B-/	.	.	.	.	.	.	.	.	.	.	.	.	.	.	.	.	.	.	.
8r	.	.	8r	.	.	.	.	.	.	.	.	.	.	.	.	.	.	.	.	.	.	.
8G\	.	.	8B-/	.	.	.	.	.	.	.	.	.	.	.	.	.	.	.	.	.	.	.
8r	x	.	8r	.	.	.	.	.	.	.	.	.	.	.	.	.	.	.	.	.	.	.
=49	=49	=49	=49	=49	=49	=49	=49	=49	=49	=49	=49	=49	=49	=49	=49	=49	=49	=49	=49	=49	=49	=49
4A-\	4	.	4c/	.	2.ryy	.	.	.	2.ryy	.	.	.	.	.	2.r	.	.	.	.	.	.	.
4A-\	3	.	4c/	.	.	.	.	.	.	.	.	.	.	.	.	.	.	.	.	.	.	.
4r	.	.	4r	.	.	.	.	.	.	.	.	.	.	.	.	.	.	.	.	.	.	.
!LO:LB:g=original	!	!	!	!	!	!	!	!	!	!	!	!	!	!	!	!	!	!	!	!	!	!
=50	=50	=50	=50	=50	=50	=50	=50	=50	=50	=50	=50	=50	=50	=50	=50	=50	=50	=50	=50	=50	=50	=50
4D-\	6	.	4f/	.	2.ryy	2.r	.	.	2.ryy	2.r	.	.	2.r	.	2.r	.	.	.	2.r	.	2.r	.
4E-\	4	.	4c/	.	.	.	.	.	.	.	.	.	.	.	.	.	.	.	.	.	.	.
4E-\	3	.	8e-/L	.	.	.	.	.	.	.	.	.	.	.	.	.	.	.	.	.	.	.
.	.	.	8d-/J	.	.	.	.	.	.	.	.	.	.	.	.	.	.	.	.	.	.	.
=51	=51	=51	=51	=51	=51	=51	=51	=51	=51	=51	=51	=51	=51	=51	=51	=51	=51	=51	=51	=51	=51	=51
!LO:TX:t=P:problem=zbędna pauza w cor 1	!	!	!LO:TX:t=P:problem=zbędna pauza w cor 1 i cor 2	!	!	!LO:TX:t=P:problem=zbędna pauza w cor 1 i cor 2	!	!	!	!LO:TX:t=P:problem=zbędna pauza w cor 1 i cor 2	!	!	!LO:TX:t=P:problem=zbędna pauza w cor 1 i cor 2	!	!LO:TX:t=P:problem=zbędna pauza	!	!LO:TX:t=P:problem=zbędna pauza	!	!LO:TX:t=P:problem=zbędna pauza w cor 1 i cor 2	!	!LO:TX:t=P:problem=zbędna pauza w cor 1 i cor 2	!
2.ryy	5_ 3_	.	2.ryy	.	2.ryy	2.ryy	.	.	2.ryy	2.ryy	.	.	2.ryy	.	2.r	.	.	.	2.ryy	.	2.ryy	.
=52	=52	=52	=52	=52	=52	=52	=52	=52	=52	=52	=52	=52	=52	=52	=52	=52	=52	=52	=52	=52	=52	=52
!	!	!	!	!	!	!	!	!	!	!	!	!	!	!	!	!	!	!LO:DY:rj	!	!	!	!
4AA-/	.	.	8c/L	.	2.ryy	(>4AA-/	Cru-	.	2.ryy	4r	.	.	4r	.	2.r	.	2.e-X\	pp	2.a-X/	p	2.cc\	.
.	.	.	8c/J	.	.	.	.	.	.	.	.	.	.	.	.	.	.	.	.	.	.	.
*	*	*	*tremolo	*	*	*	*	*	*	*	*	*	*	*	*	*	*	*	*	*	*	*
4C/	.	.	8a-/L	.	.	4C/)	.	.	.	4a-\	Cru-	.	4cc\	Cru-	.	.	.	.	.	.	.	.
.	.	.	8c/	.	.	.	.	.	.	.	.	.	.	.	.	.	.	.	.	.	.	.
4E-/	.	.	8a-/	.	.	4E-/	-ci-	.	.	4a-\	-ci-	.	4cc\	-ci-	.	.	.	.	.	.	.	.
.	.	.	8c/J	.	.	.	.	.	.	.	.	.	.	.	.	.	.	.	.	.	.	.
!	!	!	!LO:LB:g=original	!	!	!	!	!	!	!	!	!	!	!	!	!	!	!	!	!	!	!
=53	=53	=53	=53	=53	=53	=53	=53	=53	=53	=53	=53	=53	=53	=53	=53	=53	=53	=53	=53	=53	=53	=53
!	!	!	!	!	!	!	!	!	!	!	!	!	!	!	!	!	!LO:SIC:v:s=2.e-\	!	!LO:SIC:v:s=2.a-/	!	!	!
4A-\	.	.	8a-/L	.	2.ryy	4A-\	-fi-	.	2.ryy	4a-\	-fi-	.	4cc\	-fi-	2.r	.	2.e\	.	2.a/	.	2.cc\	.
.	.	.	8c/	.	.	.	.	.	.	.	.	.	.	.	.	.	.	.	.	.	.	.
4c\	.	.	8a-/	.	.	4c\	-xus	.	.	4e-\	-xus	.	4a-\	-xus	.	.	.	.	.	.	.	.
.	.	.	8c/J	.	.	.	.	.	.	.	.	.	.	.	.	.	.	.	.	.	.	.
*	*	*	*Xtremolo	*	*	*	*	*	*	*	*	*	*	*	*	*	*	*	*	*	*	*
4r	x	.	8e-/L	.	.	4r	.	.	.	4r	.	.	4r	.	.	.	.	.	.	.	.	.
.	.	.	8c/J	.	.	.	.	.	.	.	.	.	.	.	.	.	.	.	.	.	.	.
!	!	!	!	!	!	!	!	!	!	!	!	!	!	!	!	!	!	!	!	!	!LO:LB:g=original	!
=54	=54	=54	=54	=54	=54	=54	=54	=54	=54	=54	=54	=54	=54	=54	=54	=54	=54	=54	=54	=54	=54	=54
*	*	*	*tremolo	*	*	*	*	*	*	*	*	*	*	*	*	*	*	*	*	*	*	*
!	!	!	!	!	!	!	!	!	!	!	!	!	!	!	!	!	!LO:SIC:v:s=2.e-\	!	!	!	!	!
4.d-\	4 2_	.	8e-/L	.	2.ryy	4.d-\	e-	.	2.ryy	4.e-\	e-	.	4.g\	e-	2.r	.	2.e\	.	2.b-/	.	2.cc#X\	.
.	.	.	8e-/	.	.	.	.	.	.	.	.	.	.	.	.	.	.	.	.	.	.	.
.	.	.	8e-/	.	.	.	.	.	.	.	.	.	.	.	.	.	.	.	.	.	.	.
8c\L	6 _	.	8e-/	.	.	8c\	-ti-	.	.	8f\	-ti-	.	8a-\	-ti-	.	.	.	.	.	.	.	.
8B-\	8 _	.	8e-/	.	.	8B-\	-am	.	.	8g\	-am	.	8b-\	-am	.	.	.	.	.	.	.	.
8A-\J	10 _	.	8e-/J	.	.	8A-\	pro	.	.	8a-\	pro	.	8cc\	pro	.	.	.	.	.	.	.	.
*	*	*	*Xtremolo	*	*	*	*	*	*	*	*	*	*	*	*	*	*	*	*	*	*	*
=55	=55	=55	=55	=55	=55	=55	=55	=55	=55	=55	=55	=55	=55	=55	=55	=55	=55	=55	=55	=55	=55	=55
!	!	!	!	!	!	!	!	!	!	!	!	!	!	!	!	!	!LO:SIC:v:s=2.e-\	!	!	!	!	!
4G\	5 3	.	8g/L	.	2.ryy	4G\	no-	.	2.ryy	4b-\	no-	.	4dd-\	no-	2.r	.	2e\	.	4b-\	.	4cc#X\	.
.	.	.	8B-/J	.	.	.	.	.	.	.	.	.	.	.	.	.	.	.	.	.	.	.
4G\	.	.	4g/	.	.	4G\	-bis	.	.	4b-\	-bis	.	4dd-\	-bis	.	.	.	.	4r	.	4r	.
4r	.	.	4r	.	.	4r	.	.	.	4r	.	.	4r	.	.	.	4r	.	4r	.	8dd\L	.
.	.	.	.	.	.	.	.	.	.	.	.	.	.	.	.	.	.	.	.	.	8ee-X\J	.
!	!	!	!	!	!	!LO:LB:g=original	!	!	!	!LO:LB:g=original	!	!	!LO:LB:g=original	!	!	!	!LO:LB:g=original	!	!	!	!	!
=56	=56	=56	=56	=56	=56	=56	=56	=56	=56	=56	=56	=56	=56	=56	=56	=56	=56	=56	=56	=56	=56	=56
*	*	*	*tremolo	*	*	*	*	*	*	*	*	*	*	*	*	*	*	*	*	*	*	*
4GG/	5_ 3_	.	8g/L	.	2.ryy	4GG/	sub	.	2.ryy	4g\	sub	.	4b-\	sub	2.r	.	2.e-X\	.	2.b-\	.	2.cc#X\	.
.	.	.	8B-/	.	.	.	.	.	.	.	.	.	.	.	.	.	.	.	.	.	.	.
4BB-/	.	.	8g/	.	.	8BB-/	pon-	.	.	8g\	pon-	.	8b-\	pon-	.	.	.	.	.	.	.	.
.	.	.	8B-/	.	.	8BB-/	-ti-	.	.	8g\	-ti-	.	8b-\	-ti-	.	.	.	.	.	.	.	.
4E-\	.	.	8g/	.	.	8E-\	-o	.	.	8g\	-o	.	8b-\	-o	.	.	.	.	.	.	.	.
.	.	.	8B-/J	.	.	8E-\	pi-	.	.	8g\	pi-	.	8b-\	pi-	.	.	.	.	.	.	.	.
*	*	*	*Xtremolo	*	*	*	*	*	*	*	*	*	*	*	*	*	*	*	*	*	*	*
=57	=57	=57	=57	=57	=57	=57	=57	=57	=57	=57	=57	=57	=57	=57	=57	=57	=57	=57	=57	=57	=57	=57
!	!	!	!	!	!	!	!	!	!	!	!	!	!	!	!	!	!LO:SIC:v:s=2.e-\	!	!	!	!	!
4G\	.	.	8g/L	.	2.ryy	4G\	-la-	.	2.ryy	4g\	-la-	.	4b-\	-la-	2.r	.	2.e\	.	2.b-\	.	2.cc#X\	.
.	.	.	8B-/J	.	.	.	.	.	.	.	.	.	.	.	.	.	.	.	.	.	.	.
*	*	*	*tremolo	*	*	*	*	*	*	*	*	*	*	*	*	*	*	*	*	*	*	*
4B-\	.	.	8d-/L	.	.	4B-\	-to	.	.	4d-\	-to	.	4g\	-to	.	.	.	.	.	.	.	.
.	.	.	8B-/	.	.	.	.	.	.	.	.	.	.	.	.	.	.	.	.	.	.	.
4r	.	.	8d-/	.	.	4r	.	.	.	4r	.	.	4r	.	.	.	.	.	.	.	.	.
.	.	.	8B-/J	.	.	.	.	.	.	.	.	.	.	.	.	.	.	.	.	.	.	.
=58	=58	=58	=58	=58	=58	=58	=58	=58	=58	=58	=58	=58	=58	=58	=58	=58	=58	=58	=58	=58	=58	=58
!	!	!	!	!	!	!	!	!	!	!	!	!	!	!	!	!	!LO:SIC:v:s=2.e-\	!	!	!	!	!
4.c\	6 3_	.	8e-/L	.	2.ryy	4c\	pa-	.	2.ryy	4e-\	pa-	.	4a-\	pa-	2.r	.	2.e\	.	2.a-X/	.	2.ccn\	.
.	.	.	8e-/	.	.	.	.	.	.	.	.	.	.	.	.	.	.	.	.	.	.	.
.	.	.	8e-/	.	.	8c\	-sus	.	.	8e-\	-sus	.	8a-\	-sus	.	.	.	.	.	.	.	.
8B-\L	8 _	.	8e-/	.	.	8B-\	et	.	.	8g\	et	.	8b-\	et	.	.	.	.	.	.	.	.
8A-\	3 _	.	8e-/	.	.	8A-\	se-	.	.	8a-\	se-	.	8cc\	se-	.	.	.	.	.	.	.	.
8G\J	5 _	.	8e-/J	.	.	8G\	-pul-	.	.	8b-\	-pul-	.	8dd-\	-pul-	.	.	.	.	.	.	.	.
*	*	*	*Xtremolo	*	*	*	*	*	*	*	*	*	*	*	*	*	*	*	*	*	*	*
!	!	!	!	!	!	!	!	!	!	!	!	!	!	!	!	!	!	!	!LO:LB:g=original	!	!	!
=59	=59	=59	=59	=59	=59	=59	=59	=59	=59	=59	=59	=59	=59	=59	=59	=59	=59	=59	=59	=59	=59	=59
4E-\	n5	.	8g/L	.	2.ryy	4E-/	-tus	.	2.ryy	4g\	-tus	.	4bn\	-tus	2.r	.	2.e-X\	.	4a-X/	.	4cc\	.
.	.	.	8B-/J	.	.	.	.	.	.	.	.	.	.	.	.	.	.	.	.	.	.	.
4A-\	3	.	4e-/	.	.	4A-\	est	.	.	4a-\	est	.	4cc\	eſt	.	.	.	.	4r	.	4r	.
4r	.	.	4r	.	.	4r	.	.	.	4r	.	.	4r	.	.	.	.	.	4r	.	8bn\L	.
.	.	.	.	.	.	.	.	.	.	.	.	.	.	.	.	.	.	.	.	.	8cc\J	.
=60	=60	=60	=60	=60	=60	=60	=60	=60	=60	=60	=60	=60	=60	=60	=60	=60	=60	=60	=60	=60	=60	=60
*	*	*	*tremolo	*	*	*	*	*	*	*	*	*	*	*	*	*	*	*	*	*	*	*
!	!	!	!	!	!	!	!	!	!	!	!	!	!	!	!	!	!LO:TX:a:t=3	!	!	!	!	!
8G\L	n6_ 3_	.	16enLL 16G/	.	2.ryy	4G\	pas-	.	2.ryy	4b-\	pa-	.	4cc\	pa-	2.r	.	1.r	.	2.g/	.	2.b-X\	.
.	.	.	16e 16G/	.	.	.	.	.	.	.	.	.	.	.	.	.	.	.	.	.	.	.
8G\J	.	.	16e 16G/	.	.	.	.	.	.	.	.	.	.	.	.	.	.	.	.	.	.	.
.	.	.	16eJJ 16G/	.	.	.	.	.	.	.	.	.	.	.	.	.	.	.	.	.	.	.
*	*	*	*Xtremolo	*	*	*	*	*	*	*	*	*	*	*	*	*	*	*	*	*	*	*
8G\	.	.	8e 8G/	.	.	4G\	-sus	.	.	4b-\	-sus	.	4cc\	-sus	.	.	.	.	.	.	.	.
8r	.	.	8r	.	.	.	.	.	.	.	.	.	.	.	.	.	.	.	.	.	.	.
8G\	.	.	8e 8G/	.	.	4r	.	.	.	4r	.	.	4r	.	.	.	.	.	.	.	.	.
8r	.	.	8r	.	.	.	.	.	.	.	.	.	.	.	.	.	.	.	.	.	.	.
=61	=61	=61	=61	=61	=61	=61	=61	=61	=61	=61	=61	=61	=61	=61	=61	=61	=61	=61	=61	=61	=61	=61
*	*	*	*tremolo	*	*	*	*ij	*	*	*	*	*	*	*ij	*	*	*	*	*	*	*	*
8F\L	8 3	.	16a-/LL	.	2.ryy	4F\	pas-	.	2.ryy	4a-\	pa-	.	4ff\	pa-	2.r	.	.	.	2.f/	.	2.g#X/	.
.	.	.	16a-/	.	.	.	.	.	.	.	.	.	.	.	.	.	.	.	.	.	.	.
8F\J	.	.	16a-/	.	.	.	.	.	.	.	.	.	.	.	.	.	.	.	.	.	.	.
.	.	.	16a-/JJ	.	.	.	.	.	.	.	.	.	.	.	.	.	.	.	.	.	.	.
*	*	*	*Xtremolo	*	*	*	*	*	*	*	*	*	*	*	*	*	*	*	*	*	*	*
8F\	.	.	8a-/	.	.	4F\	-sus	.	.	4a-\	-sus	.	4ff\	-sus	.	.	.	.	.	.	.	.
*	*	*	*	*	*	*	*Xij	*	*	*	*	*	*	*Xij	*	*	*	*	*	*	*	*
8r	.	.	8r	.	.	.	.	.	.	.	.	.	.	.	.	.	.	.	.	.	.	.
8F\	.	.	8a-/	.	.	4r	.	.	.	4r	.	.	4r	.	.	.	.	.	.	.	.	.
8r	.	.	8r	.	.	.	.	.	.	.	.	.	.	.	.	.	.	.	.	.	.	.
!LO:LB:g=original	!	!	!LO:LB:g=original	!	!	!	!	!	!	!	!	!	!	!	!	!	!	!	!	!	!	!
=62	=62	=62	=62	=62	=62	=62	=62	=62	=62	=62	=62	=62	=62	=62	=62	=62	=62	=62	=62	=62	=62	=62
!	!	!	!	!	!	!	!	!	!	!	!	!	!	!	!	!	!	!	!LO:TX:a:t=1	!	!LO:TX:a:t=1	!
8BB-/	6 3	.	8.a-/L	.	2.ryy	8BB-/	et	.	2.ryy	8a-\	et	.	8cc\	et	2.r	.	2.r	.	2.r	.	2.r	.
8r	.	.	.	.	.	8BB-/	se-	.	.	8g\	se-	.	8b-\	se-	.	.	.	.	.	.	.	.
.	.	.	16g/Jk	.	.	.	.	.	.	.	.	.	.	.	.	.	.	.	.	.	.	.
8C/	4	.	4f/	.	.	4C/	-pul-	.	.	4f\	-pul-	.	4a-\	-pul-	.	.	.	.	.	.	.	.
8r	.	.	.	.	.	.	.	.	.	.	.	.	.	.	.	.	.	.	.	.	.	.
!	!	!	!	!	!	!	!	!	!	!	!	!	!LO:N:vis=8	!	!	!	!	!	!	!	!	!
8C/	n	.	4B-/	.	.	4C/	-tus	.	.	4en\	-tus	.	4g\	-tus	.	.	.	.	.	.	.	.
8r	.	.	.	.	.	.	.	.	.	.	.	.	.	.	.	.	.	.	.	.	.	.
!	!	!	!	!	!	!	!	!	!	!LO:LB:g=original	!	!	!	!	!	!	!	!	!	!	!	!
=63	=63	=63	=63	=63	=63	=63	=63	=63	=63	=63	=63	=63	=63	=63	=63	=63	=63	=63	=63	=63	=63	=63
!	!	!	!	!	!	!	!	!	!	!	!	!LO:DY:b	!	!	!	!LO:DY:rj	!	!	!	!	!	!
2.D-X\	8 5 3	ff	2.A-X/	.	2.ryy	2.D-X^>/	est	.	2.ryy	2.f\	eſt	f	2.a-/	eſt	2.F/	f	2.f\	f	2.a-X/	f	2.cc#X\	f
!	!	!	!	!	!	!LO:LB:g=original	!	!	!	!	!	!	!	!	!	!	!	!	!	!	!	!
=64	=64	=64	=64	=64	=64	=64	=64	=64	=64	=64	=64	=64	=64	=64	=64	=64	=64	=64	=64	=64	=64	=64
*	*	*	*tremolo	*	*	*	*	*	*	*	*	*	*	*	*	*	*	*	*	*	*	*
!	!	!	!	!	!	!	!	!	!	!	!	!LO:DY:b:rj	!	!	!LO:TX:a:t=3	!	!LO:TX:a:t=3	!	!LO:TX:a:t=2	!	!LO:TX:a:t=2	!
8B-\L	-6_ 3_	.	16d-X/LL	.	2.ryy	4B- 4BB-\	pas-	.	2.ryy	4d-X\	pa-	p	4g-X/	pa-	1.r	.	1.r	.	1.r	.	1.r	.
.	.	.	16d-/	.	.	.	.	.	.	.	.	.	.	.	.	.	.	.	.	.	.	.
8B-\J	.	.	16d-/	.	.	.	.	.	.	.	.	.	.	.	.	.	.	.	.	.	.	.
.	.	.	16d-/JJ	.	.	.	.	.	.	.	.	.	.	.	.	.	.	.	.	.	.	.
*	*	*	*Xtremolo	*	*	*	*	*	*	*	*	*	*	*	*	*	*	*	*	*	*	*
8B-\	.	.	8d-/	.	.	4B- 4BB-\	-sus	.	.	4d-\	-sus	.	4g-/	-sus	.	.	.	.	.	.	.	.
8r	.	.	8r	.	.	.	.	.	.	.	.	.	.	.	.	.	.	.	.	.	.	.
8B-\	.	.	8d-/	.	.	4r	.	.	.	4r	.	.	4r	.	.	.	.	.	.	.	.	.
8r	.	.	8r	.	.	.	.	.	.	.	.	.	.	.	.	.	.	.	.	.	.	.
!	!	!	!	!	!	!	!	!	!	!	!	!	!LO:LB:g=original	!	!	!	!	!	!	!	!	!
=65	=65	=65	=65	=65	=65	=65	=65	=65	=65	=65	=65	=65	=65	=65	=65	=65	=65	=65	=65	=65	=65	=65
*	*	*	*tremolo	*	*	*	*ij	*	*	*	*ij	*	*	*ij	*	*	*	*	*	*	*	*
8A-\L	6 3	.	16c/LL	.	2.ryy	4A- 4AA-\	pas-	.	2.ryy	4c\	pa-	.	4f\	pa-	.	.	.	.	.	.	.	.
.	.	.	16c/	.	.	.	.	.	.	.	.	.	.	.	.	.	.	.	.	.	.	.
8A-\J	.	.	16c/	.	.	.	.	.	.	.	.	.	.	.	.	.	.	.	.	.	.	.
.	.	.	16c/JJ	.	.	.	.	.	.	.	.	.	.	.	.	.	.	.	.	.	.	.
*	*	*	*Xtremolo	*	*	*	*	*	*	*	*	*	*	*	*	*	*	*	*	*	*	*
8A-\	.	.	8c/	.	.	4A- 4AA-\	-sus	.	.	4c\	-sus	.	4f\	-sus	.	.	.	.	.	.	.	.
*	*	*	*	*	*	*	*Xij	*	*	*	*Xij	*	*	*Xij	*	*	*	*	*	*	*	*
8r	.	.	8r	.	.	.	.	.	.	.	.	.	.	.	.	.	.	.	.	.	.	.
8A-\	.	.	8c/	.	.	4r	.	.	.	4r	.	.	4r	.	.	.	.	.	.	.	.	.
8r	.	.	8r	.	.	.	.	.	.	.	.	.	.	.	.	.	.	.	.	.	.	.
=66	=66	=66	=66	=66	=66	=66	=66	=66	=66	=66	=66	=66	=66	=66	=66	=66	=66	=66	=66	=66	=66	=66
*	*	*	*tremolo	*	*	*	*	*	*	*	*	*	*	*	*	*	*	*	*	*	*	*
4G\	n6 4	.	16B-/LL	.	2.ryy	8G\	et	.	2.ryy	8c\	et	.	8en\	et	2.r	.	2.r	.	4g/	.	4ee\	.
.	.	.	16B-/	.	.	.	.	.	.	.	.	.	.	.	.	.	.	.	.	.	.	.
!	!	!	!	!	!	!	!	!	!	!	!	!	!LO:SIC:v:l:s=se-	!	!	!	!	!	!	!	!	!
.	.	.	16B-/	.	.	8G\	se-	.	.	8c\	se-	.	8e\	sup-	.	.	.	.	.	.	.	.
.	.	.	16B-/JJ	.	.	.	.	.	.	.	.	.	.	.	.	.	.	.	.	.	.	.
!	!	!	!	!	!	!	!	!	!	!	!	!	!LO:SIC:v:l:s=-pul-	!	!	!	!	!	!	!	!	!
4F\	8 3	.	16A-/LL	.	.	4F\	-pul-	.	.	4c\	-pul-	.	(8f\L	-lul-	.	.	.	.	4a-X/	.	4ff\	.
.	.	.	16A-/	.	.	.	.	.	.	.	.	.	.	.	.	.	.	.	.	.	.	.
.	.	.	16A-/	.	.	.	.	.	.	.	.	.	8g\)	.	.	.	.	.	.	.	.	.
.	.	.	16A-/	.	.	.	.	.	.	.	.	.	.	.	.	.	.	.	.	.	.	.
!	!	!	!	!	!	!	!	!	!	!LO:TX:a:t=f	!	!	!	!	!	!	!	!	!	!	!	!
4D-\	n6 3	.	16A-/	.	.	4D-X\	-tus	.	.	4f\	-tus	.	(8a-\	-tus	.	.	.	.	4f/	.	4bn\	.
.	.	.	16A-/	.	.	.	.	.	.	.	.	.	.	.	.	.	.	.	.	.	.	.
.	.	.	16A-/	.	.	.	.	.	.	.	.	.	8bn\J)	.	.	.	.	.	.	.	.	.
.	.	.	16A-/JJ	.	.	.	.	.	.	.	.	.	.	.	.	.	.	.	.	.	.	.
*	*	*	*Xtremolo	*	*	*	*	*	*	*	*	*	*	*	*	*	*	*	*	*	*	*
!	!	!	!	!	!	!	!	!	!	!	!	!	!	!	!	!	!	!	!	!	!LO:LB:g=original	!
=67	=67	=67	=67	=67	=67	=67	=67	=67	=67	=67	=67	=67	=67	=67	=67	=67	=67	=67	=67	=67	=67	=67
4C\	8 3	.	4G/	.	2.ryy	4C/	est	.	2.ryy	4en\	est.	.	4cc\	est	4r	.	4r	.	4e/	.	4cc\	.
8r	.	.	8r	.	.	4r	.	.	.	4r	.	.	4r	.	8r	.	8r	.	8r	.	8r	.
!LO:TX:a:i:t=unisono	!	!	!	!	!	!	!	!	!	!	!	!	!	!	!	!	!	!	!	!	!	!
16C\LL	.	.	16c/LL	.	.	.	.	.	.	.	.	.	.	.	16C/LL	.	16c/LL	.	16c/LL	.	16cc\LL	.
16C\JJ	.	.	16c/JJ	.	.	.	.	.	.	.	.	.	.	.	16C/JJ	.	16c/JJ	.	16c/JJ	.	16cc\JJ	.
8C\L	.	.	8c/L	.	.	4r	.	.	.	4r	.	.	4r	.	8C/L	.	8c/L	.	8c/L	.	8cc\L	.
8C\J	.	.	8c/J	.	.	.	.	.	.	.	.	.	.	.	8C/J	.	8c/J	.	8c/J	.	8cc\J	.
!	!	!	!	!	!	!	!	!	!	!	!	!	!	!	!LO:LB:g=original	!	!	!	!	!	!	!
=68	=68	=68	=68	=68	=68	=68	=68	=68	=68	=68	=68	=68	=68	=68	=68	=68	=68	=68	=68	=68	=68	=68
!	!	!	!	!	!	!LO:TX:a:t=1	!	!	!	!LO:TX:a:t=1	!	!	!LO:TX:a:t=1	!	!	!	!	!	!	!	!	!
8C\	.	.	8c/	.	2.ryy	2.r	.	.	2.ryy	2.r	.	.	2.r	.	8C/	.	8c/	.	8c/	.	8cc\	.
8r	.	.	8r	.	.	.	.	.	.	.	.	.	.	.	8r	.	8r	.	8r	.	8r	.
8C\	.	.	8c/	.	.	.	.	.	.	.	.	.	.	.	8C/	.	8c/	.	8c/	.	8cc\	.
8r	.	.	8r	.	.	.	.	.	.	.	.	.	.	.	8r	.	8r	.	8r	.	8r	.
8C\	.	.	8c/	.	.	.	.	.	.	.	.	.	.	.	8C/	.	8c/	.	8c/	.	8cc\	.
8r	.	.	8r	.	.	.	.	.	.	.	.	.	.	.	8r	.	8r	.	8r	.	8r	.
=69	=69	=69	=69	=69	=69	=69	=69	=69	=69	=69	=69	=69	=69	=69	=69	=69	=69	=69	=69	=69	=69	=69
*2\left	*	*	*	*	*	*	*	*	*	*	*	*	*	*	*	*	*	*	*	*	*	*
!	!	!	!	!	!	!	!	!	!	!	!	!	!	!	!LO:N:vis=2	!	!	!	!	!	!	!
!	!	!	!LO:N:vis=2	!	!	!	!	!	!	!	!	!	!	!	!LO:TX:t=P:problem=fermata na kresce taktowej	!	!LO:TX:t=P:problem=fermata na kresce taktowej	!	!	!	!	!
2C;\	.	.	2c.;/	.	2.ryy	2.r;	.	.	2.ryy	2.r;	.	.	2.r;	.	2.C/	.	2.c/	.	2c;/	.	2cc;\	.
4r	.	.	.	.	.	.	.	.	.	.	.	.	.	.	.	.	.	.	4r	.	4r	.
*	*	*	*kcancel	*	*	*kcancel	*	*	*	*	*	*	*	*	*	*	*	*	*	*	*	*
!LO:LB:g=original	!	!	!LO:LB:g=original	!	!	!	!	!	!	!	!	!	!	!	!	!	!	!	!	!	!	!
=70||	=70||	=70||	=70||	=70||	=70||	=70||	=70||	=70||	=70||	=70||	=70||	=70||	=70||	=70||	=70||	=70||	=70||	=70||	=70||	=70||	=70||	=70||
!!!key: F
*k[b-]	*	*	*k[b-]	*	*	*k[b-]	*	*	*	*k[]	*	*	*	*	*k[b-]	*	*k[b-]	*	*k[b-]	*	*k[b-]	*
*M3/4	*	*	*M3/4	*	*	*M3/4	*	*	*	*M3/4	*	*	*M3/4	*	*M3/4	*	*M3/4	*	*M3/4	*	*M3/4	*
!	!	!	!	!	!	!	!	!	!	!LO:TX:t=P:problem=błędna zmiana tonacji w źródle	!	!	!LO:TX:t=P:problem=brak zmiany tonacji w źródle	!	!LO:TX:a:t=4	!	!LO:TX:a:t=4	!	!LO:TX:a:t=4	!	!LO:TX:a:t=4	!
!LO:TX:a:B:t=Allo	!	!	!LO:TX:a:B:t=Allo	!	!	!LO:TX:a:B:t=Allo	!	!	!	!LO:TX:a:B:t=Allo	!	!	!LO:TX:a:B:t=Allo	!	!LO:TX:a:B:t=Allo	!	!LO:TX:a:B:t=Allo	!	!LO:TX:a:B:t=Tempo 1mo	!	!LO:TX:a:B:t=Tempo 1	!
4C\	7_ 5_	.	4e/	.	2.ryy	4C\	et	.	2.ryy	4gn\	Et	.	4b-\	Et	0.r	.	0.r	.	0.r	.	0.r	.
4r	.	.	8.e/L	.	.	4C\	re-	.	.	4g\	re-	.	4b-\	re-	.	.	.	.	.	.	.	.
.	.	.	16e/Jk	.	.	.	.	.	.	.	.	.	.	.	.	.	.	.	.	.	.	.
4D-X\	.	.	8.e/L	.	.	4D-X\	-su-	.	.	4g\	-su-	.	4b-\	-su-	.	.	.	.	.	.	.	.
.	.	.	16e/Jk	.	.	.	.	.	.	.	.	.	.	.	.	.	.	.	.	.	.	.
=71	=71	=71	=71	=71	=71	=71	=71	=71	=71	=71	=71	=71	=71	=71	=71	=71	=71	=71	=71	=71	=71	=71
4C\	.	.	4e/	.	2.ryy	4C\	-re-	.	2.ryy	4g\	-re-	.	4b-\	-re-	.	.	.	.	.	.	.	.
4C\	.	.	4G/	.	.	4C\	-xit	.	.	4g\	-xit	.	4b-\	-xit	.	.	.	.	.	.	.	.
4r	.	.	4r	.	.	4r	.	.	.	4r	.	.	4r	.	.	.	.	.	.	.	.	.
=72	=72	=72	=72	=72	=72	=72	=72	=72	=72	=72	=72	=72	=72	=72	=72	=72	=72	=72	=72	=72	=72	=72
4C\	7_ 5_	.	4e/	.	2.ryy	4C\	ter-	.	2.ryy	4g\	ter-	.	4b-\	ter-	.	.	.	.	.	.	.	.
4r	.	.	8.e/L	.	.	4C\	-ti-	.	.	4g\	-ti-	.	4b-\	-ti-	.	.	.	.	.	.	.	.
.	.	.	16e/Jk	.	.	.	.	.	.	.	.	.	.	.	.	.	.	.	.	.	.	.
4D-X\	.	.	8.e/L	.	.	4D-X\	-a	.	.	4g\	-a	.	4b-\	-a	.	.	.	.	.	.	.	.
.	.	.	16e/Jk	.	.	.	.	.	.	.	.	.	.	.	.	.	.	.	.	.	.	.
!	!	!	!	!	!	!	!	!	!	!LO:PB:g=original	!	!	!	!	!	!	!	!	!	!	!	!
=73	=73	=73	=73	=73	=73	=73	=73	=73	=73	=73	=73	=73	=73	=73	=73	=73	=73	=73	=73	=73	=73	=73
4C\	.	.	4e/	.	2.ryy	4C\	di-	.	2.ryy	4g\	di-	.	4b-\	di-	.	.	.	.	.	.	.	.
4C\	.	.	4G/	.	.	4C\	-e	.	.	4g\	-e	.	4b-\	-e	.	.	.	.	.	.	.	.
4r	.	.	4r	.	.	4r	.	.	.	4r	.	.	4r	.	.	.	.	.	.	.	.	.
!	!	!	!	!	!	!LO:LB:g=original	!	!	!	!	!	!	!	!	!	!	!	!	!	!	!	!
=74	=74	=74	=74	=74	=74	=74	=74	=74	=74	=74	=74	=74	=74	=74	=74	=74	=74	=74	=74	=74	=74	=74
*2\right	*	*	*	*	*	*	*	*	*	*	*	*	*	*	*	*	*	*	*	*	*	*
*tremolo	*	*	*tremolo	*	*	*	*	*	*	*	*	*	*	*	*	*	*	*	*	*	*	*
8F\L	3	f	8cc\L	.	2.ryy	4A\	se-	.	2.ryy	4cc\	se-	.	4ff\	se-	2f\	.	2a\	.	2ff\	.	2aa\	.
8F\	.	.	8cc\	.	.	.	.	.	.	.	.	.	.	.	.	.	.	.	.	.	.	.
8F\	.	.	8cc\	.	.	4A\	-cun-	.	.	4cc\	-cun-	.	4ff\	-cun-	.	.	.	.	.	.	.	.
8F\J	.	.	8cc\	.	.	.	.	.	.	.	.	.	.	.	.	.	.	.	.	.	.	.
*Xtremolo	*	*	*	*	*	*	*	*	*	*	*	*	*	*	*	*	*	*	*	*	*	*
!	!	!	!	!	!	!	!	!	!	!	!	!	!LO:SIC:v:s=8ee\	!	!	!	!	!	!	!	!	!
8En\L	6 3	.	8cc\	.	.	8G\	-dum	.	.	8cc\	-dum	.	8ee-\	-dum	4c/	.	4g\	.	4ee\	.	4gg\	.
!	!	!	!	!	!	!	!	!	!	!	!	!	!LO:SIC:v:s=8ee\	!	!	!	!	!	!	!	!	!
8E\J	.	.	8cc\J	.	.	8G\	scri-	.	.	8cc\	Scrip-	.	8ee-\	scri-	.	.	.	.	.	.	.	.
!	!	!	!	!	!	!	!	!	!	!	!	!	!	!	!	!	!	!	!LO:LB:g=original	!	!	!
=75	=75	=75	=75	=75	=75	=75	=75	=75	=75	=75	=75	=75	=75	=75	=75	=75	=75	=75	=75	=75	=75	=75
*tremolo	*	*	*	*	*	*	*	*	*	*	*	*	*	*	*	*	*	*	*	*	*	*
!	!	!	!	!	!	!	!	!	!	!	!	!	!LO:SIC:v:s=4dd\	!	!	!	!	!	!	!	!	!
8D\L	3	.	8a/L	.	2.ryy	4F\	-ptu-	.	2.ryy	4a\	-tu-	.	4dd-\	-ptu-	2A/	.	2f\	.	2dd\	.	2ff\	.
8D\	.	.	8a/	.	.	.	.	.	.	.	.	.	.	.	.	.	.	.	.	.	.	.
!	!	!	!	!	!	!	!	!	!	!	!	!	!LO:SIC:v:s=4dd\	!	!	!	!	!	!	!	!	!
8D\	.	.	8a/	.	.	4F\	-ras	.	.	4a\	-ras	.	4dd-\	-ras	.	.	.	.	.	.	.	.
8D\J	.	.	8a/	.	.	.	.	.	.	.	.	.	.	.	.	.	.	.	.	.	.	.
*Xtremolo	*	*	*	*	*	*	*	*	*	*	*	*	*	*	*	*	*	*	*	*	*	*
8C\L	6 3	.	8a/	.	.	8E\	et	.	.	8a\	et	.	8cc\	et	4A/	.	4a\	.	4cc\	.	4ee\	.
8C\J	.	.	8a/J	.	.	8E\	as-	.	.	8a\	a-	.	8cc\	a-	.	.	.	.	.	.	.	.
!	!	!	!	!	!	!	!	!	!	!	!	!	!LO:LB:g=original	!	!	!	!	!	!	!	!	!
=76	=76	=76	=76	=76	=76	=76	=76	=76	=76	=76	=76	=76	=76	=76	=76	=76	=76	=76	=76	=76	=76	=76
*tremolo	*	*	*	*	*	*	*	*	*	*	*	*	*	*	*	*	*	*	*	*	*	*
!	!	!	!	!	!	!	!	!	!	!	!	!	!LO:SIC:v:s=4dd\	!	!LO:TX:a:t=1.	!	!	!	!	!	!	!
8BB-/L	6 3	.	8dd\L	.	2.ryy	4B-\	-scen-	.	2.ryy	4f\	-scen-	.	4dd-\	-scen-	2.r	.	2.r	.	4b-\	.	4dd\	.
8BB-/	.	.	8dd\	.	.	.	.	.	.	.	.	.	.	.	.	.	.	.	.	.	.	.
!	!	!	!	!	!	!	!	!	!	!	!	!	!LO:SIC:v:s=4dd\	!	!	!	!	!	!	!	!	!
8BB-/	.	.	8dd\	.	.	4B-\	-dit	.	.	4f\	-dit	.	4dd-\	-dit	.	.	.	.	2dd\	.	2ff\	.
8BB-/J	.	.	8dd\J	.	.	.	.	.	.	.	.	.	.	.	.	.	.	.	.	.	.	.
*Xtremolo	*	*	*Xtremolo	*	*	*	*	*	*	*	*	*	*	*	*	*	*	*	*	*	*	*
!	!	!	!	!	!	!	!	!	!	!	!	!	!LO:SIC:v:s=4dd\	!	!	!	!	!	!	!	!	!
8BBn/L	10 5	.	8ff\L	.	.	4Bn\	in	.	.	4f\	in	.	4dd-\	in	.	.	.	.	.	.	.	.
8BB/J	.	.	8ff\J	.	.	.	.	.	.	.	.	.	.	.	.	.	.	.	.	.	.	.
!	!	!	!	!	!	!	!	!	!	!	!	!	!	!	!	!	!LO:LB:g=original	!	!	!	!	!
=77	=77	=77	=77	=77	=77	=77	=77	=77	=77	=77	=77	=77	=77	=77	=77	=77	=77	=77	=77	=77	=77	=77
4C/	8 3	.	4ee\	.	2.ryy	4c\	Cae-	.	2.ryy	4e\	Cae-	.	4cc\	cae-	4c/	.	4g\	.	4cc\	.	4ee\	.
4D/	n6 3	.	4ff\	.	.	4d\	-lum	.	.	4f\	-lum	.	4bn\	-lum	4g\	.	4g\	.	4dd\	.	4ff\	.
4r	.	.	4r	.	.	4r	.	.	.	4r	.	.	4r	.	4r	.	4r	.	4r	.	4r	.
=78	=78	=78	=78	=78	=78	=78	=78	=78	=78	=78	=78	=78	=78	=78	=78	=78	=78	=78	=78	=78	=78	=78
4E\	5 3	.	4gg\	.	2.ryy	4E\	se-	.	2.ryy	4g\	se-	.	4b-X\	se-	4g\	.	4g\	.	4b-\	.	4gg\	.
!	!	!	!	!	!	!	!	!	!	!	!	!	!LO:SIC:v:s=4a\	!	!	!	!	!	!	!	!	!
4F\	3	.	4ff\	.	.	4F\	-det	.	.	4f\	-det	.	4a-\	-det	4c/	.	4f\	.	4a\	.	4ff\	.
4r	.	.	4r	.	.	4r	.	.	.	4r	.	.	4r	.	4r	.	4r	.	4r	.	4r	.
!	!	!	!LO:LB:g=original	!	!	!	!	!	!	!	!	!	!	!	!	!	!	!	!	!	!	!
=79	=79	=79	=79	=79	=79	=79	=79	=79	=79	=79	=79	=79	=79	=79	=79	=79	=79	=79	=79	=79	=79	=79
!	!	!	!	!	!	!	!	!	!	!	!	!	!	!	!LO:TX:a:t=1	!	!LO:TX:a:t=1	!	!	!	!	!
4BB-/	6 3	.	8b-\	.	2.ryy	8BB-/	ad	.	2.ryy	8g\	ad	.	8b-\	ad	2.r	.	2.r	.	8b-\	.	8gg\	.
.	.	.	8r	.	.	8BB-/	dex-	.	.	8g\	dex-	.	8b-\	dex-	.	.	.	.	8r	.	8r	.
!	!	!	!	!	!	!	!	!	!	!	!	!	!LO:SIC:v:s=4a\	!	!	!	!	!	!	!	!	!
4C/	4	.	8a\	.	.	4C/	-te-	.	.	4f\	-te-	.	4a-\	-te-	.	.	.	.	8a\	.	8ff\	.
.	.	.	8r	.	.	.	.	.	.	.	.	.	.	.	.	.	.	.	8r	.	8r	.
4C/	3	.	8g/	.	.	4C/	-ram	.	.	4e\	-ram	.	4g\	-ram	.	.	.	.	8g\	.	8ee\	.
.	.	.	8r	.	.	.	.	.	.	.	.	.	.	.	.	.	.	.	8r	.	8r	.
!	!	!	!	!	!	!	!	!	!	!	!	!	!	!	!	!	!	!	!	!	!LO:LB:g=original	!
=80	=80	=80	=80	=80	=80	=80	=80	=80	=80	=80	=80	=80	=80	=80	=80	=80	=80	=80	=80	=80	=80	=80
*	*	*	*tremolo	*	*	*	*	*	*	*	*	*	*	*	*tremolo	*	*tremolo	*	*tremolo	*	*	*
!	!	!	!	!	!	!	!	!	!	!	!	!	!	!	!LO:TX:a:t=.	!	!LO:TX:a:t=.	!	!	!	!	!
4F\	.	.	8f/L	.	2.ryy	4F\	pa-	.	2.ryy	4c\	pa-	.	4f/	pa-	8F'>/L	.	8f'\L	.	8f/L	.	8ff\L	.
!	!	!	!	!	!	!	!	!	!	!	!	!	!	!	!LO:TX:a:t=.	!	!LO:TX:a:t=.	!	!	!	!	!
.	.	.	8f/	.	.	.	.	.	.	.	.	.	.	.	8F'/	.	8f'\	.	8f/	.	8ff\	.
!	!	!	!	!	!	!	!	!	!	!	!	!	!	!	!LO:TX:a:t=.	!	!LO:TX:a:t=.	!	!	!	!	!
4r	.	.	8f/	.	.	4F\	-tris	.	.	4c\	-tris	.	4f/	-tris	8F'/	.	8f'\	.	8f/	.	8ff\	.
!	!	!	!	!	!	!	!	!	!	!	!	!	!	!	!LO:TX:a:t=.	!	!LO:TX:a:t=.	!	!	!	!	!
.	.	.	8f/	.	.	.	.	.	.	.	.	.	.	.	8F'/	.	8f'\	.	8f/	.	8ff\	.
!	!	!	!	!	!	!	!	!	!	!	!	!	!	!	!LO:TX:a:t=.	!	!LO:TX:a:t=.	!	!	!	!	!
4r	.	.	8f/	.	.	4r	.	.	.	4r	.	.	4r	.	8F'/	.	8f'\	.	8f/	.	8ff\	.
!	!	!	!	!	!	!	!	!	!	!	!	!	!	!	!LO:TX:a:t=.	!	!	!	!	!	!	!
.	.	.	8f/J	.	.	.	.	.	.	.	.	.	.	.	8F'/J	.	8f'\J	.	8f/J	.	8ff\J	.
*	*	*	*	*	*	*	*	*	*	*	*	*	*	*	*Xtremolo	*	*Xtremolo	*	*Xtremolo	*	*	*
!	!	!	!	!	!	!	!	!	!	!LO:LB:g=original	!	!	!	!	!	!	!	!	!	!	!	!
=81	=81	=81	=81	=81	=81	=81	=81	=81	=81	=81	=81	=81	=81	=81	=81	=81	=81	=81	=81	=81	=81	=81
!	!	!LO:DY:rj	!	!	!	!	!	!	!	!	!	!	!	!	!	!	!	!	!	!	!	!LO:DY:rj
4D-X\	8_ 3_	p	8f/L	.	2.ryy	(4D-X\	et	.	2.ryy	2f\	et	.	4f\	et	2.F/	.	2.f\	.	2.b-\	.	2.dd-X\	p
.	.	.	8f/	.	.	.	.	.	.	.	.	.	.	.	.	.	.	.	.	.	.	.
4BB-\	.	.	8f/	.	.	4BB-\)	.	.	.	.	.	.	8b-\L	.	.	.	.	.	.	.	.	.
.	.	.	8f/	.	.	.	.	.	.	.	.	.	8dd-X\J	.	.	.	.	.	.	.	.	.
!	!	!	!	!	!	!	!	!	!	!LO:SIC:v:s=4b-\	!	!	!	!	!	!	!	!	!	!	!	!
4D-\	.	.	8f/	.	.	4D-\	ex-	.	.	4b\	ex-	.	8ff\L	ex-	.	.	.	.	.	.	.	.
.	.	.	8f/J	.	.	.	.	.	.	.	.	.	16ee-X\L	.	.	.	.	.	.	.	.	.
.	.	.	.	.	.	.	.	.	.	.	.	.	16dd-\JJ	.	.	.	.	.	.	.	.	.
!LO:LB:g=original	!	!	!	!	!	!LO:LB:g=original	!	!	!	!	!	!	!	!	!	!	!	!	!	!	!	!
=82	=82	=82	=82	=82	=82	=82	=82	=82	=82	=82	=82	=82	=82	=82	=82	=82	=82	=82	=82	=82	=82	=82
*	*	*	*	*	*	*	*	*	*	*	*	*	*	*	*tremolo	*	*tremolo	*	*	*	*	*
!	!	!	!	!	!	!	!	!	!	!LO:SIC:v:s=4b-\	!	!	!	!	!	!	!	!	!	!	!	!
4F\	-6 4	.	8f/L	.	2.ryy	4F\	-pe-	.	2.ryy	4b\	-pe-	.	4dd-X\	-pe-	8F/L	.	8f\L	.	8a/L	.	8cc\L	.
.	.	.	8f/	.	.	.	.	.	.	.	.	.	.	.	8F/	.	8f\	.	8f/	.	8ff\	.
4F\	.	.	8f/	.	.	4F\	-cto	.	.	4a\	-cto	.	4cc\	-cto	8F/	.	8f\	.	8f/	.	8ff\	.
.	.	.	8f/	.	.	.	.	.	.	.	.	.	.	.	8F/	.	8f\	.	8f/	.	8ff\	.
4r	.	.	8f/	.	.	4r	.	.	.	4r	.	.	4r	.	8F/	.	8f\	.	8f/	.	8ff\	.
.	.	.	8f/J	.	.	.	.	.	.	.	.	.	.	.	8F/J	.	8f\J	.	8f/J	.	8ff\J	.
*	*	*	*	*	*	*	*	*	*	*	*	*	*	*	*Xtremolo	*	*Xtremolo	*	*	*	*	*
=83	=83	=83	=83	=83	=83	=83	=83	=83	=83	=83	=83	=83	=83	=83	=83	=83	=83	=83	=83	=83	=83	=83
4D-X/	8_ 3_	.	8f/L	.	2.ryy	8D-X\	re-	.	2.ryy	8f\	re-	.	8f\	re-	2.F/	.	2.f\	.	2.b-X\	.	2.dd-X\	.
.	.	.	8f/	.	.	8D-\	-su-	.	.	8f\	-su-	.	4b-\	-su-	.	.	.	.	.	.	.	.
4BB-/	.	.	8f/	.	.	4BB-\	-re-	.	.	4f\	-re-	.	.	.	.	.	.	.	.	.	.	.
.	.	.	8f/	.	.	.	.	.	.	.	.	.	8dd-X\	-re-	.	.	.	.	.	.	.	.
!	!	!	!	!	!	!	!	!	!	!LO:SIC:v:s=4b-\	!	!	!	!	!	!	!	!	!	!	!	!
4D-/	.	.	8f/	.	.	4D-\	-cti-	.	.	4b\	-cti-	.	8ff\	-cti-	.	.	.	.	.	.	.	.
.	.	.	8f/J	.	.	.	.	.	.	.	.	.	16ee-X\LL	.	.	.	.	.	.	.	.	.
.	.	.	.	.	.	.	.	.	.	.	.	.	16dd-\JJ	.	.	.	.	.	.	.	.	.
=84	=84	=84	=84	=84	=84	=84	=84	=84	=84	=84	=84	=84	=84	=84	=84	=84	=84	=84	=84	=84	=84	=84
*	*	*	*	*	*	*	*	*	*	*	*	*	*	*	*tremolo	*	*tremolo	*	*	*	*	*
!	!	!	!	!	!	!	!	!	!	!LO:SIC:v:s=4b-\	!	!	!	!	!	!	!	!	!	!	!	!
4F\	-6 4	.	8f/L	.	2.ryy	4F\	-o-	.	2.ryy	4b\	-o-	.	4dd-X\	-o-	8F/L	.	8f\L	.	8a/L	.	8cc\L	.
.	.	.	8f/	.	.	.	.	.	.	.	.	.	.	.	8F/	.	8f\	.	8f/J	.	8ff\	.
*	*	*	*	*	*	*	*	*	*	*	*	*	*	*	*	*	*	*	*tremolo	*	*	*
4F\	5 3	.	8f/	.	.	4F\	-nem	.	.	4a\	-nem	.	4cc\	-nem	8F/	.	8f\	.	8f/L	.	8ff\	.
.	.	.	8f/	.	.	.	.	.	.	.	.	.	.	.	8F/	.	8f\	.	8f/	.	8ff\	.
4r	.	.	8f/	.	.	4r	.	.	.	4r	.	.	4r	.	8F/	.	8f\	.	8f/	.	8ff\	.
.	.	.	8f/J	.	.	.	.	.	.	.	.	.	.	.	8F/J	.	8f\J	.	8f/J	.	8ff\J	.
*	*	*	*Xtremolo	*	*	*	*	*	*	*	*	*	*	*	*Xtremolo	*	*Xtremolo	*	*Xtremolo	*	*	*
!	!	!	!	!	!	!	!	!	!	!	!	!	!LO:LB:g=original	!	!	!	!	!	!	!	!	!
=85	=85	=85	=85	=85	=85	=85	=85	=85	=85	=85	=85	=85	=85	=85	=85	=85	=85	=85	=85	=85	=85	=85
4D-X|\	n6_ 3_	.	8g/	.	2.ryy	4D-X\	mor-	.	2.ryy	4g\	mor-	.	4bn\	mor-	2.F/	.	2.f\	.	2.f/	.	2.ddn\	.
.	.	.	4g/	.	.	.	.	.	.	.	.	.	.	.	.	.	.	.	.	.	.	.
4D-|\	.	.	.	.	.	4D-\	-tu-	.	.	4g\	-tu-	.	4b\	-tu-	.	.	.	.	.	.	.	.
.	.	.	4g/	.	.	.	.	.	.	.	.	.	.	.	.	.	.	.	.	.	.	.
4D-|\	.	.	.	.	.	4D-\	-o-	.	.	4g\	-o-	.	4b\	-o-	.	.	.	.	.	.	.	.
.	.	.	8g/	.	.	.	.	.	.	.	.	.	.	.	.	.	.	.	.	.	.	.
!	!	!	!	!	!	!	!	!	!	!	!	!	!	!	!LO:LB:g=original	!	!	!	!	!	!	!
=86	=86	=86	=86	=86	=86	=86	=86	=86	=86	=86	=86	=86	=86	=86	=86	=86	=86	=86	=86	=86	=86	=86
4C|\	8_ 3_	.	8g/L	.	2.ryy	4C\	-rum	.	2.ryy	4g\	-rum	.	4cc\	-rum	2.C/	.	2.c/	.	2.e/	.	2.cc\	.
.	.	.	8c/J	.	.	.	.	.	.	.	.	.	.	.	.	.	.	.	.	.	.	.
*	*	*	*tremolo	*	*	*	*	*	*	*	*	*	*	*	*	*	*	*	*	*	*	*
4C|\	.	.	8c/L	.	.	4r	.	.	.	4r	.	.	4r	.	.	.	.	.	.	.	.	.
.	.	.	8c/	.	.	.	.	.	.	.	.	.	.	.	.	.	.	.	.	.	.	.
4C|\	.	.	8c/	.	.	4r	.	.	.	4r	.	.	4r	.	.	.	.	.	.	.	.	.
.	.	.	8c/J	.	.	.	.	.	.	.	.	.	.	.	.	.	.	.	.	.	.	.
*	*	*	*Xtremolo	*	*	*	*	*	*	*	*	*	*	*	*	*	*	*	*	*	*	*
=87	=87	=87	=87	=87	=87	=87	=87	=87	=87	=87	=87	=87	=87	=87	=87	=87	=87	=87	=87	=87	=87	=87
*	*	*	*	*	*	*	*ij	*	*	*	*	*	*	*	*	*	*	*	*	*	*	*
!	!	!	!	!	!	!	!	!	!	!	!	!	!	!	!	!	!	!	!	!	!LO:TX:t=P:problem=kreska taktowa podwójna	!
4BBn|\	5 3	.	8d/	.	2.ryy	4D-X\	mor-	.	2.ryy	4d-X\	mor-	.	4f/	mor-	2.F/	.	2.f\	.	2.d/	.	2.bn\	.
.	.	.	4d/	.	.	.	.	.	.	.	.	.	.	.	.	.	.	.	.	.	.	.
4BB|\	.	.	.	.	.	4D-\	-tu-	.	.	4d-\	-tu-	.	4f/	-tu-	.	.	.	.	.	.	.	.
.	.	.	4d/	.	.	.	.	.	.	.	.	.	.	.	.	.	.	.	.	.	.	.
4BB|\	.	.	.	.	.	4D-\	-o-	.	.	4d-\	-o-	.	4f/	-o-	.	.	.	.	.	.	.	.
.	.	.	8d/	.	.	.	.	.	.	.	.	.	.	.	.	.	.	.	.	.	.	.
!	!	!	!	!	!	!	!	!	!	!	!	!	!	!	!	!	!	!	!LO:LB:g=original	!	!	!
=88	=88	=88	=88	=88	=88	=88	=88	=88	=88	=88	=88	=88	=88	=88	=88	=88	=88	=88	=88	=88	=88	=88
*M6/8	*	*	*M6/8	*	*	*M6/8	*	*	*	*M6/8	*	*	*M6/8	*	*M6/8	*	*M6/8	*	*M6/8	*	*M6/8	*
!LO:TX:a:B:t=Presto	!	!	!	!	!	!	!	!	!	!	!	!	!LO:SIC:v:s=8e/	!	!	!	!	!	!	!	!	!
!LO:TX:a:i:t=unisono:dur=20q:ext=c:problem=text with extention lines	!	!	!	!	!	!LO:TX:a:B:t=Presto	!	!	!	!LO:TX:a:B:t=Presto	!	!	!LO:TX:a:B:t=Presto	!	!LO:TX:a:B:t=Presto	!	!LO:TX:a:B:t=Presto	!	!LO:TX:a:B:t=Presto	!	!LO:TX:a:B:t=Presto	!
8C\L	.	.	8c/L	.	2.ryy	4C\	-rum	.	2.ryy	8c\	-rum	.	8e-	-rum	8C/L	.	8c/L	.	8c/L	.	8cc\L	.
*	*	*	*	*	*	*	*Xij	*	*	*	*	*	*	*	*	*	*	*	*	*	*	*
8C\	.	.	8c/	.	.	.	.	.	.	8r	.	.	8r	.	8C/	.	8c/	.	8c/	.	8cc\	.
8C\J	.	.	8c/J	.	.	8r	.	.	.	8r	.	.	8r	.	8C/J	.	8c/J	.	8c/J	.	8cc\J	.
8C\L	.	.	8c/L	.	.	4r	.	.	.	4r	.	.	4r	.	8C/L	.	8c/L	.	8c/L	.	8cc\L	.
8C\	.	.	8c/	.	.	.	.	.	.	.	.	.	.	.	8C/	.	8c/	.	8c/	.	8cc\	.
8C\J	.	.	8c/J	.	.	8r	.	.	.	8r	.	.	8r	.	8C/J	.	8c/J	.	8c/J	.	8cc\J	.
!	!	!	!LO:LB:g=original	!	!	!LO:LB:g=original	!	!	!	!LO:LB:g=original	!	!	!	!	!	!	!	!	!	!	!	!
=89	=89	=89	=89	=89	=89	=89	=89	=89	=89	=89	=89	=89	=89	=89	=89	=89	=89	=89	=89	=89	=89	=89
*	*	*	*	*	*	*	*	*	*	*	*	*	*	*	*tremolo	*	*tremolo	*	*tremolo	*	*	*
!	!	!	!	!	!	!	!	!	!	!	!	!	!	!	!	!	!	!	!	!	!LO:TX:a:i:t=Solo	!
8D-X\L	.	.	8d-X/L	.	2.ryy	8C\	et	.	2.ryy	8cc\	et	.	8cc\	Et	8C/L	.	8c/L	.	8c/L	.	8cc#X'\L	.
8C\	.	.	8c/	.	.	8C\	in	.	.	8cc\	in	.	8cc\	in	8C/	.	8c/	.	8c/	.	8ccn'\	.
8Dn\J	.	.	8dn/J	.	.	8C\	Spi-	.	.	8cc\	Spi-	.	8cc\	Spi-	8C/	.	8c/	.	8c/	.	8dd'\J	.
8C\L	.	.	8c/L	.	.	4C/	-ri-	.	.	4cc\	-ri-	.	4cc\	-ri-	8C/	.	8c/	.	8c/	.	8cc'\L	.
8E-X\	.	.	8e-X/	.	.	.	.	.	.	.	.	.	.	.	8C/	.	8c/	.	8c/	.	8ee-X'\	.
8C\J	.	.	8c/J	.	.	8C/	-tum	.	.	8cc\	-tum	.	8cc\	-tum	8C/J	.	8c/J	.	8c/J	.	8cc'\J	.
!	!	!	!	!	!	!	!	!	!	!	!	!	!	!	!	!	!	!	!	!	!LO:LB:g=original	!
=90	=90	=90	=90	=90	=90	=90	=90	=90	=90	=90	=90	=90	=90	=90	=90	=90	=90	=90	=90	=90	=90	=90
8En\L	.	.	8en/L	.	2.ryy	8C\	San-	.	2.ryy	8cc\	San-	.	8cc\	San-	8C/L	.	8c/L	.	8c/L	.	8een'\L	.
8C\	.	.	8c/	.	.	8C\	-ctum	.	.	8cc\	-ctum	.	8cc\	-ctum	8C/	.	8c/	.	8c/	.	8cc'\	.
8E\J	.	.	8f/J	.	.	8C\	Do-	.	.	8cc\	Do-	.	8cc\	Do-	8C/	.	8c/	.	8c/	.	8ff'\J	.
8C\L	.	.	8c/L	.	.	4C\	-mi-	.	.	4cc\	-mi-	.	4cc\	-mi-	8C/	.	8c/	.	8c/	.	8cc'\L	.
8F#X\	.	.	8f#X/	.	.	.	.	.	.	.	.	.	.	.	8C/	.	8c/	.	8c/	.	8ff#X'\	.
8C\J	.	.	8c/J	.	.	8C\	-num	.	.	8cc\	-num	.	8cc\	-num	8C/J	.	8c/J	.	8c/J	.	8cc'\J	.
!LO:LB:g=original	!	!	!	!	!	!	!	!	!	!	!	!	!	!	!	!	!LO:LB:g=original	!	!	!	!	!
=91	=91	=91	=91	=91	=91	=91	=91	=91	=91	=91	=91	=91	=91	=91	=91	=91	=91	=91	=91	=91	=91	=91
8G\L	.	.	8g/L	.	2.ryy	8C\	re-	.	2.ryy	8cc\	re-	.	8cc\	re-	8C/L	.	8c/L	.	8cc\L	.	8gg\L	.
8C\	.	.	8c/	.	.	8C\	-mi-	.	.	8cc\	-mi-	.	8cc\	-mi-	8C/	.	8c/	.	8cc\	.	8cc\	.
8G#X\J	.	.	8a-X/J	.	.	8C\	-si-	.	.	8cc\	-si-	.	8cc\	-ſi-	8C/	.	8c/	.	8cc\	.	8gg#X\J	.
8C\L	.	.	8c/L	.	.	4C\	-o-	.	.	4cc\	-o-	.	4cc\	-o-	8C/	.	8c/	.	8cc\	.	8cc\L	.
8A\	.	.	8an/	.	.	.	.	.	.	.	.	.	.	.	8C/	.	8c/	.	8cc\	.	8aa\	.
8C\J	.	.	8c/J	.	.	8C\	-nem	.	.	8cc\	-nem	.	8cc\	-nem	8C/J	.	8c/J	.	8cc\J	.	8cc\J	.
=92	=92	=92	=92	=92	=92	=92	=92	=92	=92	=92	=92	=92	=92	=92	=92	=92	=92	=92	=92	=92	=92	=92
!	!	!	!	!	!	!	!	!	!	!	!	!	!LO:SIC:v:l:s=pec-	!	!	!	!	!	!	!	!	!
8B-\L	.	.	8b-/L	.	2.ryy	8C\	pe-	.	2.ryy	8cc\	pe-	.	8cc\	pe-	8C/L	.	8c/L	.	8cc\L	.	8bb-\L	.
8C\	.	.	8c/	.	.	8C\	-ca-	.	.	8cc\	-ca-	.	8cc\	-ca-	8C/	.	8c/	.	8cc\	.	8cc\	.
8Bn\J	.	.	8bn/J	.	.	8C\	-to-	.	.	8cc\	-to-	.	8cc\	-to-	8C/	.	8c/	.	8cc\	.	8bbn\J	.
!LO:TX:t=P:problem=mixed beam	!	!	!	!	!	!	!	!	!	!	!	!	!	!	!	!	!	!	!	!	!	!
8C/L	.	.	8c/L	.	.	4.C\	-rum	.	.	4.cc\	-rum	.	4.cc\	-rum	8C/	.	8c/	.	8cc\	.	8cc\L	.
8c\	.	.	8cc/	.	.	.	.	.	.	.	.	.	.	.	8C/	.	8c/	.	8cc\	.	8ccc\	.
8C/J	.	.	8c/J	.	.	.	.	.	.	.	.	.	.	.	8C/J	.	8c/J	.	8cc\J	.	8cc\J	.
*	*	*	*	*	*	*	*	*	*	*	*	*	*	*	*Xtremolo	*	*Xtremolo	*	*Xtremolo	*	*	*
!	!	!	!	!	!	!	!	!	!	!	!	!	!LO:LB:g=original	!	!	!	!	!	!	!	!	!
=93	=93	=93	=93	=93	=93	=93	=93	=93	=93	=93	=93	=93	=93	=93	=93	=93	=93	=93	=93	=93	=93	=93
4.F\	3_	ff	8A/L	.	2.ryy	[4.F\	et	.	2.ryy	4a\	Et	.	4ff\	et	4F/	.	4f\	.	4cc\	.	4aa\	.
.	.	.	8c/	.	.	.	.	.	.	.	.	.	.	.	.	.	.	.	.	.	.	.
.	.	.	8f/J	.	.	.	.	.	.	8a\	vi-	.	8ff\	vi-	8r	.	8r	.	8r	.	8r	.
8r	.	.	4.a/	.	.	8F\]	.	.	.	4.a\	-tam	.	4.ff\	-tam	8r	.	8r	.	8r	.	8r	.
8A\L	.	.	.	.	.	8A\	vi-	.	.	.	.	.	.	.	8A/L	.	8f\L	.	8cc\L	.	8aa\L	.
8F\J	.	.	.	.	.	8F\	-tam	.	.	.	.	.	.	.	8A/J	.	8f\J	.	8cc\J	.	8aa\J	.
!	!	!	!	!	!	!LO:LB:g=original	!	!	!	!	!	!	!	!	!	!	!	!	!	!	!	!
=94	=94	=94	=94	=94	=94	=94	=94	=94	=94	=94	=94	=94	=94	=94	=94	=94	=94	=94	=94	=94	=94	=94
4.D\	5_ 3_	.	8d/L	.	2.ryy	[4.D\	ven-	.	2.ryy	4a\	ven-	.	4ff\	ven-	4A/	.	4f\	.	4dd\	.	4aa\	.
.	.	.	8f/	.	.	.	.	.	.	.	.	.	.	.	.	.	.	.	.	.	.	.
.	.	.	8a/J	.	.	.	.	.	.	8a\	-tu-	.	8ff\	-tu-	8r	.	8r	.	8r	.	8r	.
8r	.	.	4.dd\	.	.	8D\]	.	.	.	4.a\	-ri	.	4.ff\	-ri	8r	.	8r	.	8r	.	8r	.
8F\L	.	.	.	.	.	8F\	-tu-	.	.	.	.	.	.	.	8A/L	.	8f\L	.	8dd\L	.	8aa\L	.
!	!	!	!	!	!	!LO:SIC:v:l:s=-ri	!	!	!	!	!	!	!	!	!	!	!	!	!	!	!	!
8D\J	.	.	.	.	.	8D\	-ru	.	.	.	.	.	.	.	8A/J	.	8f\J	.	8dd\J	.	8aa\J	.
!	!	!	!	!	!	!	!	!	!	!LO:LB:g=original	!	!	!	!	!	!	!	!	!	!	!	!
=95	=95	=95	=95	=95	=95	=95	=95	=95	=95	=95	=95	=95	=95	=95	=95	=95	=95	=95	=95	=95	=95	=95
*	*	*	*	*	*	*	*	*	*	*	*	*	*	*ij	*	*	*	*	*	*	*	*
!	!	!	!	!	!	!	!	!	!	!LO:SIC:v:s=4b-\	!	!	!	!	!	!	!	!	!	!	!	!
4.BB-/	6_ 3_	.	8d/L	.	2.ryy	[>4.BB-/	ven-	[[Se-	2.ryy	4b\	ven-	.	4gg\	ven-	4g\	.	4g\	.	4dd\	.	4bb-\	.
.	.	.	8g/	.	.	.	.	.	.	.	.	.	.	.	.	.	.	.	.	.	.	.
!	!	!	!	!	!	!	!	!	!	!LO:SIC:v:s=8b-\	!	!	!	!	!	!	!	!	!	!	!	!
.	.	.	8b-/J	.	.	.	.	.	.	8b\	-tu-	.	8gg\	-tu-	8r	.	8r	.	8r	.	8r	.
!	!	!	!	!	!	!	!	!	!	!LO:SIC:v:s=4.b-\	!	!	!	!	!	!	!	!	!	!	!	!
8r	.	.	4.dd\	.	.	8BB-/]	.	.	.	4.b\	-ri	.	4.gg\	-ri	8r	.	8r	.	8r	.	8r	.
*	*	*	*	*	*	*	*	*	*	*	*	*	*	*Xij	*	*	*	*	*	*	*	*
8D/L	.	.	.	.	.	8D/	-tu-	-cu-	.	.	.	.	.	.	8g\L	.	8g\L	.	8dd\L	.	8bb-\L	.
8BB-/J	.	.	.	.	.	8BB-/	-ri	-li]]	.	.	.	.	.	.	8g\J	.	8g\J	.	8dd\J	.	8bb-\J	.
=96	=96	=96	=96	=96	=96	=96	=96	=96	=96	=96	=96	=96	=96	=96	=96	=96	=96	=96	=96	=96	=96	=96
!	!	!	!	!	!	!	!	!	!	!	!	!	!LO:SIC:v:s=4ee\	!	!	!	!	!	!	!	!	!
4.C/	5_ 3_	.	8e/L	.	2.ryy	[>4.C/	Se-	.	2.ryy	4g\	Se-	.	4ee-\	se-	4c/	.	4g\	.	4ee\	.	4ccc\	.
.	.	.	8g/	.	.	.	.	.	.	.	.	.	.	.	.	.	.	.	.	.	.	.
!	!	!	!	!	!	!	!	!	!	!	!	!	!LO:SIC:v:s=8ee\	!	!	!	!	!	!	!	!	!
.	.	.	8cc/J	.	.	.	.	.	.	8g\	-cu-	.	8ee-\	-cu-	8r	.	8r	.	8r	.	8r	.
!	!	!	!	!	!	!	!	!	!	!	!	!	!LO:SIC:v:s=4.ee\	!	!	!	!	!	!	!	!	!
8r	.	.	4.ee\	.	.	8C/]	.	.	.	4.g\	-li	.	4.ee-\	-li	8r	.	8r	.	8r	.	8r	.
8E\L	.	.	.	.	.	8E/	-cu-	.	.	.	.	.	.	.	8c/L	.	8g\L	.	8ee\L	.	8ccc\L	.
8C\J	.	.	.	.	.	8C/	-li	.	.	.	.	.	.	.	8c/J	.	8g\J	.	8ee\J	.	8ccc\J	.
!	!	!	!	!	!	!	!	!	!	!	!	!	!	!	!	!	!	!	!	!	!LO:LB:g=original	!
=97	=97	=97	=97	=97	=97	=97	=97	=97	=97	=97	=97	=97	=97	=97	=97	=97	=97	=97	=97	=97	=97	=97
!	!	!	!	!	!	!	!	!	!	!	!	!	!LO:TX:t=P:problem=takty nr 96-99 zapisane repetycją	!	!	!	!	!	!	!	!	!
4.F\	3_	.	8A/L	.	2.ryy	[4.F\	Et	.	2.ryy	4a\	et	.	4ff\yy	et	4A/	.	4f\	.	4cc\	.	4aa\	.
.	.	.	8c/	.	.	.	.	.	.	.	.	.	.	.	.	.	.	.	.	.	.	.
.	.	.	8f/J	.	.	.	.	.	.	8a\	vi-	.	8ff\yy	vi-	8r	.	8r	.	8r	.	8r	.
*	*	*	*tremolo	*	*	*	*	*	*	*	*	*	*	*	*	*	*	*	*	*	*	*
8r	.	.	16a/LL	.	.	8F\]	.	.	.	4.a\	-tam	.	4.ff\yy	-tam	8r	.	8r	.	8r	.	8r	.
.	.	.	16a/	.	.	.	.	.	.	.	.	.	.	.	.	.	.	.	.	.	.	.
8A\L	.	.	16a/	.	.	8A\	vi-	.	.	.	.	.	.	.	8A/L	.	8f\L	.	8cc\L	.	8aa\L	.
.	.	.	16a/	.	.	.	.	.	.	.	.	.	.	.	.	.	.	.	.	.	.	.
8F\J	.	.	16a/	.	.	8F\	-tam	.	.	.	.	.	.	.	8A/J	.	8f\J	.	8cc\J	.	8aa\J	.
.	.	.	16a/JJ	.	.	.	.	.	.	.	.	.	.	.	.	.	.	.	.	.	.	.
*	*	*	*Xtremolo	*	*	*	*	*	*	*	*	*	*	*	*	*	*	*	*	*	*	*
!LO:PB:g=original	!	!	!LO:LB:g=original	!	!	!	!	!	!	!	!	!	!	!	!LO:LB:g=original	!	!	!	!LO:LB:g=original	!	!	!
=98	=98	=98	=98	=98	=98	=98	=98	=98	=98	=98	=98	=98	=98	=98	=98	=98	=98	=98	=98	=98	=98	=98
4.D\	5_ 3_	.	8d/L	.	2.ryy	[4.D\	ven-	.	2.ryy	4a\	ven-	.	4ff\yy	ven-	4A/	.	4f\	.	4dd\	.	4aa\	.
.	.	.	8f/	.	.	.	.	.	.	.	.	.	.	.	.	.	.	.	.	.	.	.
.	.	.	8a/J	.	.	.	.	.	.	8a\	-tu-	.	8ff\yy	-tu-	8r	.	8r	.	8r	.	8r	.
*	*	*	*tremolo	*	*	*	*	*	*	*	*	*	*	*	*	*	*	*	*	*	*	*
8r	.	.	16dd\LL	.	.	8D\]	.	.	.	4.a\	-ri	.	4.ff\yy	-ri	8r	.	8r	.	8r	.	8r	.
.	.	.	16dd\	.	.	.	.	.	.	.	.	.	.	.	.	.	.	.	.	.	.	.
8F\L	.	.	16dd\	.	.	8F\	-tu-	.	.	.	.	.	.	.	8A/L	.	8f\L	.	8dd\L	.	8aa\L	.
.	.	.	16dd\	.	.	.	.	.	.	.	.	.	.	.	.	.	.	.	.	.	.	.
8D\J	.	.	16dd\	.	.	8D\	-ri	.	.	.	.	.	.	.	8A/J	.	8f\J	.	8dd\J	.	8aa\J	.
.	.	.	16dd\JJ	.	.	.	.	.	.	.	.	.	.	.	.	.	.	.	.	.	.	.
*	*	*	*Xtremolo	*	*	*	*	*	*	*	*	*	*	*	*	*	*	*	*	*	*	*
=99	=99	=99	=99	=99	=99	=99	=99	=99	=99	=99	=99	=99	=99	=99	=99	=99	=99	=99	=99	=99	=99	=99
*	*	*	*	*	*	*	*ij	*	*	*	*ij	*	*	*ij	*	*	*	*	*	*	*	*
!	!	!	!	!	!	!	!	!	!	!LO:SIC:v:s=4b-\	!	!	!	!	!	!	!	!	!	!	!	!
4.BB-/	6_ 5_	.	8d/L	.	2.ryy	[>4.BB-/	ven-	.	2.ryy	4b\	ven-	.	4gg\yy	ven-	4g\	.	4g\	.	4dd\	.	4bb-\	.
.	.	.	8g/	.	.	.	.	.	.	.	.	.	.	.	.	.	.	.	.	.	.	.
!	!	!	!	!	!	!	!	!	!	!LO:SIC:v:s=8b-\	!	!	!	!	!	!	!	!	!	!	!	!
.	.	.	8b-/J	.	.	.	.	.	.	8b\	-tu-	.	8gg\yy	-tu-	8r	.	8r	.	8r	.	8r	.
*	*	*	*tremolo	*	*	*	*	*	*	*	*	*	*	*	*	*	*	*	*	*	*	*
!	!	!	!	!	!	!	!	!	!	!LO:SIC:v:s=4.b-\	!	!	!	!	!	!	!	!	!	!	!	!
8r	.	.	16dd\LL	.	.	8BB-/]	.	.	.	4.b\	-ri	.	4.gg\yy	-ri	8r	.	8r	.	8r	.	8r	.
*	*	*	*	*	*	*	*	*	*	*	*Xij	*	*	*Xij	*	*	*	*	*	*	*	*
.	.	.	16dd\	.	.	.	.	.	.	.	.	.	.	.	.	.	.	.	.	.	.	.
8D\L	.	.	16dd\	.	.	8D/	-tu-	.	.	.	.	.	.	.	8g\L	.	8g\L	.	8dd\L	.	8bb-\L	.
.	.	.	16dd\	.	.	.	.	.	.	.	.	.	.	.	.	.	.	.	.	.	.	.
8BB-\J	.	.	16dd\	.	.	8BB-/	-ri	.	.	.	.	.	.	.	8g\J	.	8g\J	.	8dd\J	.	8bb-\J	.
.	.	.	16dd\JJ	.	.	.	.	.	.	.	.	.	.	.	.	.	.	.	.	.	.	.
*	*	*	*Xtremolo	*	*	*	*Xij	*	*	*	*	*	*	*	*	*	*	*	*	*	*	*
!	!	!	!	!	!	!	!LO:PB:g=original	!	!	!	!	!	!	!	!	!	!	!	!	!	!	!
=100	=100	=100	=100	=100	=100	=100	=100	=100	=100	=100	=100	=100	=100	=100	=100	=100	=100	=100	=100	=100	=100	=100
!	!	!	!	!	!	!	!	!	!	!	!	!	!LO:SIC:v:s=4ee\	!	!	!	!	!	!	!	!	!
4.C\	5_ 3_	.	8e/L	.	2.ryy	[>4.C/	se-	.	2.ryy	4g\	se-	.	4ee-\yy	se-	4c/	.	4g\	.	4ee\	.	4ccc\	.
.	.	.	8g/	.	.	.	.	.	.	.	.	.	.	.	.	.	.	.	.	.	.	.
!	!	!	!	!	!	!	!	!	!	!	!	!	!LO:SIC:v:s=8ee\	!	!	!	!	!	!	!	!	!
.	.	.	8cc/J	.	.	.	.	.	.	8g\	-cu-	.	8ee-\yy	-cu-	8r	.	8r	.	8r	.	8r	.
*	*	*	*tremolo	*	*	*	*	*	*	*	*	*	*	*	*	*	*	*	*	*	*	*
!	!	!	!	!	!	!	!	!	!	!	!	!	!LO:SIC:v:s=4.ee\	!	!	!	!	!	!	!	!	!
8r	.	.	16ee\LL	.	.	8C/]	.	.	.	4.g\	-li	.	4.ee-\yy	-li	8r	.	8r	.	8r	.	8r	.
.	.	.	16ee\	.	.	.	.	.	.	.	.	.	.	.	.	.	.	.	.	.	.	.
8E\L	.	.	16ee\	.	.	8E/	-cu-	.	.	.	.	.	.	.	8c/L	.	8g\L	.	8ee\L	.	8ccc\L	.
.	.	.	16ee\	.	.	.	.	.	.	.	.	.	.	.	.	.	.	.	.	.	.	.
8C\J	.	.	16ee\	.	.	8C/	-li	.	.	.	.	.	.	.	8c/J	.	8g\J	.	8ee\J	.	8ccc\J	.
.	.	.	16ee\JJ	.	.	.	.	.	.	.	.	.	.	.	.	.	.	.	.	.	.	.
!	!	!	!	!	!	!	!	!	!	!	!	!	!	!	!	!	!LO:LB:g=original	!	!	!	!	!
=101	=101	=101	=101	=101	=101	=101	=101	=101	=101	=101	=101	=101	=101	=101	=101	=101	=101	=101	=101	=101	=101	=101
4F\	3	.	16aLL 16f/	.	2.ryy	4F\	a-	.	2.ryy	4a\	a-	.	4ff\	a-	8r	.	8r	.	8r	.	8r	.
.	.	.	16a 16f/	.	.	.	.	.	.	.	.	.	.	.	.	.	.	.	.	.	.	.
.	.	.	16a 16f/	.	.	.	.	.	.	.	.	.	.	.	8A/L	.	8f\L	.	8cc\L	.	8aa\L	.
.	.	.	16a 16f/	.	.	.	.	.	.	.	.	.	.	.	.	.	.	.	.	.	.	.
8r	.	.	16a 16f/	.	.	8r	.	.	.	8r	.	.	8r	.	8A/J	.	8f\J	.	8cc\J	.	8aa\J	.
.	.	.	16aJJ 16f/	.	.	.	.	.	.	.	.	.	.	.	.	.	.	.	.	.	.	.
!	!	!	!	!	!	!	!	!	!	!LO:SIC:v:s=4b-\	!	!	!	!	!	!	!	!	!	!	!	!
4C\	5	.	16b-LL 16g/	.	.	4c\	-men	.	.	4b\	-men	.	4gg\	-men	8r	.	8r	.	8r	.	8r	.
.	.	.	16b- 16g/	.	.	.	.	.	.	.	.	.	.	.	.	.	.	.	.	.	.	.
.	.	.	16b- 16g/	.	.	.	.	.	.	.	.	.	.	.	8c/L	.	8g\L	.	8cc\L	.	8bb-\L	.
.	.	.	16b- 16g/	.	.	.	.	.	.	.	.	.	.	.	.	.	.	.	.	.	.	.
8r	.	.	16b- 16g/	.	.	8r	.	.	.	8r	.	.	8r	.	8c/J	.	8g\J	.	8cc\J	.	8bb-\J	.
.	.	.	16b-JJ 16g/	.	.	.	.	.	.	.	.	.	.	.	.	.	.	.	.	.	.	.
!	!	!	!	!	!	!	!	!	!	!LO:LB:g=original	!	!	!	!	!	!	!	!	!	!	!	!
=102	=102	=102	=102	=102	=102	=102	=102	=102	=102	=102	=102	=102	=102	=102	=102	=102	=102	=102	=102	=102	=102	=102
*	*	*	*	*	*	*	*ij	*	*	*	*	*	*	*	*rep	*	*	*	*	*	*	*
!	!	!	!	!	!	!	!	!	!	!	!	!	!LO:SIC:v:s=4aa\	!	!	!	!	!	!	!	!	!
4F\	3	.	16ccLL 16a/	.	2.ryy	4F\	a-	.	2.ryy	4cc\	a-	.	4aa-\	a-	8r	.	8r	.	8r	.	8r	.
.	.	.	16cc 16a/	.	.	.	.	.	.	.	.	.	.	.	.	.	.	.	.	.	.	.
.	.	.	16cc 16a/	.	.	.	.	.	.	.	.	.	.	.	8A/L	.	8f\L	.	8cc\L	.	8aa\L	.
.	.	.	16cc 16a/	.	.	.	.	.	.	.	.	.	.	.	.	.	.	.	.	.	.	.
8r	.	.	16cc 16a/	.	.	8r	.	.	.	8r	.	.	8r	.	8A/J	.	8f\J	.	8cc\J	.	8aa\J	.
.	.	.	16ccJJ 16a/	.	.	.	.	.	.	.	.	.	.	.	.	.	.	.	.	.	.	.
!	!	!	!	!	!	!	!	!	!	!LO:SIC:v:s=4b-\	!	!	!	!	!	!	!	!	!	!	!	!
4C\	5	.	16b-LL 16g/	.	.	4c\	-men	.	.	4b\	-men	.	4gg\	-men	8r	.	8r	.	8r	.	8r	.
.	.	.	16b- 16g/	.	.	.	.	.	.	.	.	.	.	.	.	.	.	.	.	.	.	.
.	.	.	16b- 16g/	.	.	.	.	.	.	.	.	.	.	.	8c/L	.	8g\L	.	8cc\L	.	8bb-\L	.
.	.	.	16b- 16g/	.	.	.	.	.	.	.	.	.	.	.	.	.	.	.	.	.	.	.
8r	.	.	16b- 16g/	.	.	8r	.	.	.	8r	.	.	8r	.	8c/J	.	8g\J	.	8cc\J	.	8bb-\J	.
.	.	.	16b-JJ 16g/	.	.	.	.	.	.	.	.	.	.	.	.	.	.	.	.	.	.	.
*	*	*	*	*	*	*	*	*	*	*	*	*	*	*	*Xrep	*	*	*	*	*	*	*
=103	=103	=103	=103	=103	=103	=103	=103	=103	=103	=103	=103	=103	=103	=103	=103	=103	=103	=103	=103	=103	=103	=103
*	*	*	*	*	*	*	*	*	*	*	*ij	*	*	*ij	*rep	*	*	*	*	*	*	*
4F\	3	.	16aLL 16f/	.	2.ryy	4F\	a-	.	2.ryy	4a\	a-	.	4ff\	a-	8r	.	8r	.	8r	.	8r	.
.	.	.	16a 16f/	.	.	.	.	.	.	.	.	.	.	.	.	.	.	.	.	.	.	.
.	.	.	16a 16f/	.	.	.	.	.	.	.	.	.	.	.	8A/L	.	8f\L	.	8cc\L	.	8aa\L	.
.	.	.	16a 16f/	.	.	.	.	.	.	.	.	.	.	.	.	.	.	.	.	.	.	.
8r	.	.	16a 16f/	.	.	8r	.	.	.	8r	.	.	8r	.	8A/J	.	8f\J	.	8cc\J	.	8aa\J	.
.	.	.	16aJJ 16f/	.	.	.	.	.	.	.	.	.	.	.	.	.	.	.	.	.	.	.
!	!	!	!	!	!	!	!	!	!	!LO:SIC:v:s=4b-\	!	!	!	!	!	!	!	!	!	!	!	!
4C\	5	.	16b-LL 16g/	.	.	4c\	-men	.	.	4b\	-men	.	4gg\	-men	8r	.	8r	.	8r	.	8r	.
.	.	.	16b- 16g/	.	.	.	.	.	.	.	.	.	.	.	.	.	.	.	.	.	.	.
.	.	.	16b- 16g/	.	.	.	.	.	.	.	.	.	.	.	8c/L	.	8g\L	.	8cc\L	.	8bb-\L	.
.	.	.	16b- 16g/	.	.	.	.	.	.	.	.	.	.	.	.	.	.	.	.	.	.	.
8r	.	.	16b- 16g/	.	.	8r	.	.	.	8r	.	.	8r	.	8c/J	.	8g\J	.	8cc\J	.	8bb-\J	.
.	.	.	16b-JJ 16g/	.	.	.	.	.	.	.	.	.	.	.	.	.	.	.	.	.	.	.
*	*	*	*	*	*	*	*	*	*	*	*	*	*	*Xij	*Xrep	*	*	*	*	*	*	*
=104	=104	=104	=104	=104	=104	=104	=104	=104	=104	=104	=104	=104	=104	=104	=104	=104	=104	=104	=104	=104	=104	=104
*	*	*	*	*	*	*	*	*	*	*	*	*	*	*	*rep	*	*	*	*	*	*rep	*
!	!	!	!	!	!	!	!	!	!	!	!	!	!LO:SIC:v:s=4aa\	!	!	!	!	!	!	!	!	!
4F\	3	.	16ccLL 16a/	.	2.ryy	4F\	a-	.	2.ryy	4cc\	a-	.	4aa-\	a-	8r	.	8r	.	8r	.	8r	.
.	.	.	16cc 16a/	.	.	.	.	.	.	.	.	.	.	.	.	.	.	.	.	.	.	.
.	.	.	16cc 16a/	.	.	.	.	.	.	.	.	.	.	.	8A/L	.	8f\L	.	8cc\L	.	8aa\L	.
.	.	.	16cc 16a/	.	.	.	.	.	.	.	.	.	.	.	.	.	.	.	.	.	.	.
8r	.	.	16cc 16a/	.	.	8r	.	.	.	8r	.	.	8r	.	8A/J	.	8f\J	.	8cc\J	.	8aa\J	.
.	.	.	16ccJJ 16a/	.	.	.	.	.	.	.	.	.	.	.	.	.	.	.	.	.	.	.
!	!	!	!	!	!	!	!	!	!	!LO:SIC:v:s=4b-\	!	!	!	!	!	!	!	!	!	!	!	!
4C\	5	.	16b-LL 16g/	.	.	4c\	.	.	.	4b\	.	.	4gg\	-a-	8r	.	8r	.	8r	.	8r	.
.	.	.	16b- 16g/	.	.	.	.	.	.	.	.	.	.	.	.	.	.	.	.	.	.	.
.	.	.	16b- 16g/	.	.	.	.	.	.	.	.	.	.	.	8c/L	.	8g\L	.	8cc\L	.	8bb-\L	.
.	.	.	16b- 16g/	.	.	.	.	.	.	.	.	.	.	.	.	.	.	.	.	.	.	.
8r	.	.	16b- 16g/	.	.	8r	.	.	.	8r	.	.	8r	.	8c/J	.	8g\J	.	8cc\J	.	8bb-\J	.
.	.	.	16b-JJ 16g/	.	.	.	.	.	.	.	.	.	.	.	.	.	.	.	.	.	.	.
*	*	*	*	*	*	*	*	*	*	*	*	*	*	*	*Xrep	*	*	*	*	*	*Xrep	*
!	!	!	!	!	!	!	!	!	!	!	!	!	!	!	!	!	!	!	!	!	!LO:PB:g=original	!
=105	=105	=105	=105	=105	=105	=105	=105	=105	=105	=105	=105	=105	=105	=105	=105	=105	=105	=105	=105	=105	=105	=105
4.F\	3	.	16cc\LL	.	2.ryy	4F\	-men	.	2.ryy	4a\	-men	.	4ff\	-men	4A/	.	4f\	.	4cc\	.	4aa\	.
*	*	*	*	*	*	*	*Xij	*	*	*	*Xij	*	*	*	*	*	*	*	*	*	*	*
.	.	.	16cc\	.	.	.	.	.	.	.	.	.	.	.	.	.	.	.	.	.	.	.
.	.	.	16cc\	.	.	.	.	.	.	.	.	.	.	.	.	.	.	.	.	.	.	.
.	.	.	16cc\	.	.	.	.	.	.	.	.	.	.	.	.	.	.	.	.	.	.	.
.	.	.	16cc\	.	.	8r	.	.	.	8r	.	.	8r	.	8r	.	8r	.	8r	.	8r	.
.	.	.	16cc\	.	.	.	.	.	.	.	.	.	.	.	.	.	.	.	.	.	.	.
!	!	!	!	!	!	!	!	!	!	!LO:SIC:v:s=4b-\	!	!	!	!	!	!	!	!	!	!	!	!
8C\L	7_ 5_	.	16cc\	.	.	4.c\	a-	.	.	4.b\	a-	.	4.gg\	a-	8c/L	.	8g\L	.	8ee\L	.	8bb-\L	.
.	.	.	16cc\	.	.	.	.	.	.	.	.	.	.	.	.	.	.	.	.	.	.	.
8E\	.	.	16cc\	.	.	.	.	.	.	.	.	.	.	.	8c/	.	8g\	.	8ee\	.	8bb-\	.
.	.	.	16cc\	.	.	.	.	.	.	.	.	.	.	.	.	.	.	.	.	.	.	.
8C\J	.	.	16cc\	.	.	.	.	.	.	.	.	.	.	.	8c/J	.	8g\J	.	8ee\J	.	8bb-\J	.
.	.	.	16cc\JJ	.	.	.	.	.	.	.	.	.	.	.	.	.	.	.	.	.	.	.
!LO:LB:g=original	!	!	!	!	!	!	!	!	!	!	!	!	!	!	!	!	!	!	!LO:LB:g=original	!	!	!
=106	=106	=106	=106	=106	=106	=106	=106	=106	=106	=106	=106	=106	=106	=106	=106	=106	=106	=106	=106	=106	=106	=106
*	*	*	*	*	*	*	*	*	*	*	*	*	*	*	*rep	*	*	*	*	*	*	*
!LO:TX:a:i:t=unisono	!	!	!	!	!	!	!	!	!	!	!	!	!	!	!	!	!	!	!	!	!	!
16F\LL	x	ff	16c/LL	.	2.ryy	4f\	-men	.	2.ryy	4a\	-men	.	4ff\	-men	4A/	.	4f\	.	4ff\	.	4aa\	.
16c\	.	.	16c/	.	.	.	.	.	.	.	.	.	.	.	.	.	.	.	.	.	.	.
16B-\	.	.	16c/	.	.	.	.	.	.	.	.	.	.	.	.	.	.	.	.	.	.	.
16A\	.	.	16c/	.	.	.	.	.	.	.	.	.	.	.	.	.	.	.	.	.	.	.
16G\	.	.	16c/	.	.	8r	.	.	.	8r	.	.	8r	.	8r	.	8r	.	8r	.	8r	.
16F\JJ	.	.	16c/	.	.	.	.	.	.	.	.	.	.	.	.	.	.	.	.	.	.	.
!	!	!	!	!	!	!	!	!	!	!	!	!	!LO:N:vis=4	!	!	!	!	!	!	!	!	!
!	!	!	!	!	!	!	!	!	!	!	!	!	!LO:SIC:v:s=4ee\	!	!	!	!	!	!	!	!	!
16E\LL	.	.	16c/	.	.	4.c\	a-	.	.	4.g\	a-	.	4.ee-\	a-	8c/L	.	8g\L	.	8b-/L	.	8ee\L	.
16D\	.	.	16c/	.	.	.	.	.	.	.	.	.	.	.	.	.	.	.	.	.	.	.
16C\	.	.	16c/	.	.	.	.	.	.	.	.	.	.	.	8c/	.	8g\	.	8b-/	.	8ee\	.
16BB-\	.	.	16c/	.	.	.	.	.	.	.	.	.	.	.	.	.	.	.	.	.	.	.
16AA\	.	.	16c/	.	.	.	.	.	.	.	.	.	.	.	8c/J	.	8g\J	.	8b-/J	.	8ee\J	.
16GG\JJ	.	.	16c/JJ	.	.	.	.	.	.	.	.	.	.	.	.	.	.	.	.	.	.	.
*	*	*	*Xtremolo	*	*	*	*	*	*	*	*	*	*	*	*Xrep	*	*	*	*	*	*	*
!	!	!	!LO:LB:g=original	!	!	!	!	!	!	!	!	!	!	!	!	!	!	!	!	!	!	!
=107	=107	=107	=107	=107	=107	=107	=107	=107	=107	=107	=107	=107	=107	=107	=107	=107	=107	=107	=107	=107	=107	=107
!LO:TX:t=P:problem=mixed beam	!	!	!	!	!	!	!	!	!	!	!	!	!	!	!	!	!	!	!	!	!	!
8FF/L	8_ 3_	.	8A/L	.	2.ryy	4.F\	-men	.	2.ryy	4.a\	-men	.	4.ff\	-men	8F/L	.	8f\L	.	8a/L	.	8ff\L	.
8F\	.	.	8A/	.	.	.	.	.	.	.	.	.	.	.	8C/	.	8c\	.	8c/	.	8cc\	.
8C\J	.	.	8c/J	.	.	.	.	.	.	.	.	.	.	.	8F/J	.	8f\J	.	8f/J	.	8ff\J	.
8AA/L	.	.	8f/L	.	.	4.F\	a-	.	.	4.a\	a-	.	4.ff\	a-	8A/L	.	8a\L	.	8a/L	.	8aa\L	.
8C/	.	.	8a/	.	.	.	.	.	.	.	.	.	.	.	8c/	.	8cc\	.	8cc/	.	8ccc\	.
8AA/J	.	.	8cc/J	.	.	.	.	.	.	.	.	.	.	.	8A/J	.	8a\J	.	8a/J	.	8aa\J	.
=108	=108	=108	=108	=108	=108	=108	=108	=108	=108	=108	=108	=108	=108	=108	=108	=108	=108	=108	=108	=108	=108	=108
4FF/	.	.	4ff\	.	2.ryy	4F\	-men	.	2.ryy	4a\	-men	.	4ff\	-men	4F/	.	4f\	.	4a\	.	4ff\	.
8r	.	.	8r	.	.	8r	.	.	.	8r	.	.	8r	.	8r	.	8r	.	8r	.	8r	.
4F\	.	.	4cc 4f/	.	.	4r	.	.	.	4r	.	.	4r	.	4A/	.	4f\	.	4cc\	.	4aa\	.
!	!	!	!	!	!	!	!	!	!	!LO:TX:t=P:problem=partia kończy się w t. nr 107	!	!	!LO:TX:t=P:problem=partia kończy się w t. nr 107	!	!	!	!	!	!	!	!	!
8r	.	.	8r	.	.	8r	.	.	.	8r	.	.	8r	.	8r	.	8r	.	8r	.	8r	.
=109	=109	=109	=109	=109	=109	=109	=109	=109	=109	=109	=109	=109	=109	=109	=109	=109	=109	=109	=109	=109	=109	=109
!	!	!	!LO:N:vis=2	!	!	!	!	!	!	!	!	!	!	!	!	!	!	!	!	!	!	!
2.FF/	.	.	2.c;/	.	2.ryy	2.r	.	.	2.ryy	2.ryy	.	.	2.ryy	.	2.F;/	.	2.f;\	.	2.a;/	.	2.ff;\	.
==	==	==	==	==	==	==	==	==	==	==	==	==	==	==	==	==	==	==	==	==	==	==
*-	*-	*-	*-	*-	*-	*-	*-	*-	*-	*-	*-	*-	*-	*-	*-	*-	*-	*-	*-	*-	*-	*-
!!!system-decoration: [(g1)][(g2)][(g3)][(g4)]<s11>
!!!RDF**kern: > = above
!!!RDF**kern: < = below
!!!RDF**kern: | = vertical stroke
!!!ENC: Mateusz Solarz
!!!END: 2021-11-19
!!!ENC: Andrzej Kubiczek
!!!END: 2021-12-18
